; GCode generated from SVG
; Original SVG: sample.svg
; Size: 45.000 x 42.160 mm
; Cutting speed: 600 mm/min, Idle speed: 1000 mm/min, Power: 800
G21 ; mm mode
G90 ; absolute positioning
M5 ; laser off
; Path 1
G0 F1000 X12.318 Y0.030
M3 S800
G1 F600 X12.051 Y0.058
G1 X11.678 Y0.101
G1 X11.230 Y0.187
G1 X10.697 Y0.330
G1 X10.511 Y0.388
G1 X10.187 Y0.508
G1 X10.033 Y0.573
G1 X9.571 Y0.800
G1 X9.425 Y0.888
G1 X8.957 Y1.237
G1 X8.804 Y1.447
G1 X8.767 Y1.569
G1 X8.763 Y1.853
G1 X8.806 Y2.369
G1 X8.907 Y2.826
G1 X8.964 Y3.047
G1 X9.019 Y3.250
G1 X9.076 Y3.444
G1 X9.133 Y3.630
G1 X9.190 Y3.817
G1 X9.247 Y4.003
G1 X9.318 Y4.268
G1 X9.305 Y4.324
G1 X9.259 Y4.363
G1 X9.117 Y4.443
G1 X8.734 Y4.716
G1 X8.556 Y4.832
G1 X8.436 Y4.735
G1 X8.040 Y4.311
G1 X7.677 Y3.981
G1 X7.569 Y3.895
G1 X7.440 Y3.793
G1 X7.286 Y3.681
G1 X7.002 Y3.492
G1 X6.662 Y3.300
G1 X6.540 Y3.241
G1 X6.410 Y3.182
G1 X6.200 Y3.087
G1 X6.020 Y3.002
G1 X5.852 Y2.936
G1 X5.454 Y2.862
G1 X5.219 Y2.821
G1 X4.567 Y2.741
G1 X3.960 Y2.735
G1 X3.363 Y2.819
G1 X3.137 Y2.861
G1 X2.707 Y2.955
G1 X2.561 Y3.009
G1 X2.419 Y3.065
G1 X2.340 Y3.089
G1 X2.272 Y3.114
G1 X2.116 Y3.191
G1 X1.759 Y3.378
G1 X1.253 Y3.761
G1 X1.086 Y3.913
G1 X0.773 Y4.303
G1 X0.657 Y4.477
G1 X0.600 Y4.573
G1 X0.577 Y4.611
G1 X0.356 Y5.075
G1 X0.152 Y5.670
G1 X0.067 Y6.068
G1 X0.000 Y6.982
G1 X0.074 Y7.923
G1 X0.098 Y8.106
G1 X0.181 Y8.539
G1 X0.220 Y8.708
G1 X0.300 Y9.042
G1 X0.406 Y9.444
G1 X0.463 Y9.664
G1 X0.575 Y10.096
G1 X0.632 Y10.316
G1 X0.811 Y11.137
G1 X0.846 Y11.374
G1 X0.872 Y11.836
G1 X0.860 Y12.315
G1 X0.803 Y12.711
G1 X0.770 Y12.872
G1 X0.739 Y13.007
G1 X0.682 Y13.253
G1 X0.631 Y13.464
G1 X0.602 Y13.591
G1 X0.519 Y13.955
G1 X0.343 Y14.894
G1 X0.324 Y15.783
G1 X0.365 Y16.098
G1 X0.443 Y16.375
G1 X0.561 Y16.633
G1 X0.728 Y16.886
G1 X0.990 Y17.175
G1 X1.354 Y17.437
G1 X1.765 Y17.645
G1 X1.860 Y17.681
G1 X2.116 Y17.786
G1 X2.269 Y17.822
G1 X2.448 Y17.860
G1 X2.879 Y17.890
G1 X3.307 Y17.861
G1 X3.469 Y17.821
G1 X3.732 Y17.706
G1 X4.014 Y17.530
G1 X4.150 Y17.422
G1 X4.549 Y16.993
G1 X4.913 Y16.362
G1 X4.992 Y16.264
G1 X5.142 Y16.330
G1 X5.842 Y16.744
G1 X6.055 Y16.835
G1 X6.149 Y16.835
G1 X5.924 Y16.661
G1 X5.649 Y16.494
G1 X5.347 Y16.304
G1 X5.047 Y16.078
G1 X5.062 Y15.983
G1 X5.103 Y15.859
G1 X5.154 Y15.673
G1 X5.251 Y15.284
G1 X5.292 Y15.089
G1 X5.324 Y14.869
G1 X5.388 Y14.582
G1 X5.770 Y14.633
G1 X6.232 Y14.732
G1 X6.435 Y14.776
G1 X6.605 Y14.810
G1 X6.775 Y14.843
G1 X7.353 Y14.919
G1 X7.502 Y14.905
G1 X7.446 Y14.878
G1 X7.294 Y14.843
G1 X6.710 Y14.723
G1 X6.419 Y14.664
G1 X5.835 Y14.547
G1 X5.511 Y14.480
G1 X5.389 Y14.450
G1 X5.395 Y14.080
G1 X5.424 Y13.684
G1 X5.710 Y13.639
G1 X6.466 Y13.556
G1 X6.580 Y13.532
G1 X6.682 Y13.498
G1 X6.790 Y13.464
G1 X6.849 Y13.445
G1 X6.749 Y13.435
G1 X6.021 Y13.508
G1 X5.600 Y13.538
G1 X5.389 Y13.540
G1 X5.378 Y13.346
G1 X5.349 Y13.058
G1 X5.317 Y12.855
G1 X5.171 Y12.152
G1 X5.098 Y11.856
G1 X4.938 Y11.289
G1 X4.879 Y11.086
G1 X4.822 Y10.891
G1 X4.765 Y10.697
G1 X4.706 Y10.494
G1 X4.603 Y10.138
G1 X4.547 Y9.944
G1 X4.426 Y9.512
G1 X4.369 Y9.300
G1 X4.272 Y8.928
G1 X4.234 Y8.767
G1 X4.157 Y8.386
G1 X4.131 Y8.258
G1 X4.055 Y7.772
G1 X4.015 Y7.244
G1 X4.086 Y6.626
G1 X4.179 Y6.337
G1 X4.311 Y6.093
G1 X4.483 Y5.896
G1 X4.694 Y5.745
G1 X4.838 Y5.661
G1 X5.025 Y5.617
G1 X5.535 Y5.583
G1 X5.981 Y5.623
G1 X6.265 Y5.721
G1 X6.365 Y5.753
G1 X6.859 Y6.005
G1 X7.048 Y6.101
G1 X7.318 Y6.272
G1 X7.564 Y6.448
G1 X7.709 Y6.561
G1 X7.722 Y7.100
G1 X7.740 Y7.706
G1 X7.799 Y8.090
G1 X7.828 Y8.243
G1 X7.861 Y8.412
G1 X8.184 Y9.495
G1 X8.291 Y9.766
G1 X8.421 Y10.103
G1 X8.478 Y10.247
G1 X8.558 Y10.417
G1 X8.744 Y10.798
G1 X8.888 Y11.086
G1 X9.275 Y11.769
G1 X9.327 Y11.865
G1 X9.380 Y11.960
G1 X9.543 Y12.240
G1 X9.855 Y12.779
G1 X10.043 Y13.109
G1 X10.074 Y13.159
G1 X10.133 Y13.261
G1 X10.214 Y13.406
G1 X10.398 Y13.811
G1 X10.489 Y14.003
G1 X10.540 Y14.118
G1 X10.475 Y14.160
G1 X10.372 Y14.220
G1 X10.125 Y14.474
G1 X9.703 Y14.928
G1 X9.272 Y15.394
G1 X8.979 Y15.726
G1 X9.020 Y15.770
G1 X9.174 Y15.797
G1 X9.441 Y15.833
G1 X9.952 Y15.911
G1 X10.470 Y15.988
G1 X10.722 Y16.029
G1 X10.976 Y16.072
G1 X11.171 Y16.072
G1 X11.340 Y16.042
G1 X11.394 Y16.116
G1 X11.606 Y16.672
G1 X11.849 Y17.264
G1 X11.964 Y17.548
G1 X11.960 Y17.602
G1 X11.925 Y17.648
G1 X11.860 Y17.738
G1 X11.749 Y17.882
G1 X11.584 Y18.085
G1 X11.457 Y18.241
G1 X11.310 Y18.418
G1 X10.532 Y19.269
G1 X10.218 Y19.634
G1 X10.175 Y19.760
G1 X10.081 Y20.006
G1 X9.972 Y20.294
G1 X9.910 Y20.454
G1 X9.852 Y20.602
G1 X9.822 Y20.689
G1 X9.799 Y20.753
G1 X9.715 Y20.962
G1 X9.635 Y21.174
G1 X9.546 Y21.402
G1 X9.499 Y21.537
G1 X9.466 Y21.633
G1 X9.584 Y21.637
G1 X9.733 Y21.598
G1 X9.960 Y21.537
G1 X10.187 Y21.478
G1 X10.341 Y21.438
G1 X10.436 Y21.420
G1 X10.468 Y21.442
G1 X10.316 Y21.593
G1 X9.534 Y22.387
G1 X9.417 Y22.517
G1 X9.308 Y22.526
G1 X9.068 Y22.562
G1 X8.875 Y22.587
G1 X8.721 Y22.611
G1 X8.558 Y22.652
G1 X8.258 Y22.736
G1 X8.088 Y22.791
G1 X7.643 Y22.978
G1 X7.601 Y22.993
G1 X7.315 Y23.143
G1 X7.132 Y23.271
G1 X6.599 Y23.703
G1 X6.135 Y24.187
G1 X5.671 Y24.768
G1 X5.538 Y24.919
G1 X5.325 Y25.034
G1 X4.681 Y25.369
G1 X4.537 Y25.453
G1 X4.044 Y25.839
G1 X3.597 Y26.294
G1 X3.323 Y26.691
G1 X3.281 Y26.763
G1 X2.970 Y27.436
G1 X2.820 Y28.045
G1 X2.789 Y28.240
G1 X2.768 Y28.747
G1 X2.795 Y29.281
G1 X2.910 Y29.865
G1 X2.966 Y30.068
G1 X3.073 Y30.386
G1 X3.096 Y30.462
G1 X3.363 Y31.024
G1 X3.727 Y31.547
G1 X3.956 Y31.771
G1 X4.201 Y31.962
G1 X4.830 Y32.299
G1 X5.284 Y32.445
G1 X5.414 Y32.484
G1 X5.665 Y32.544
G1 X6.057 Y32.589
G1 X6.919 Y32.606
G1 X7.210 Y32.616
G1 X7.529 Y32.859
G1 X7.637 Y32.949
G1 X8.089 Y33.372
G1 X8.653 Y34.000
G1 X9.391 Y35.041
G1 X9.490 Y35.205
G1 X9.660 Y35.491
G1 X9.708 Y35.574
G1 X9.773 Y35.689
G1 X9.805 Y35.755
G1 X10.357 Y36.881
G1 X10.435 Y37.058
G1 X10.491 Y37.245
G1 X10.454 Y37.261
G1 X10.367 Y37.240
G1 X10.025 Y37.151
G1 X9.782 Y37.091
G1 X9.263 Y36.990
G1 X8.963 Y36.943
G1 X8.290 Y36.917
G1 X7.818 Y36.925
G1 X7.561 Y36.962
G1 X7.156 Y37.067
G1 X7.018 Y37.126
G1 X6.775 Y37.244
G1 X6.645 Y37.323
G1 X6.272 Y37.615
G1 X6.199 Y37.709
G1 X5.961 Y38.060
G1 X5.819 Y38.356
G1 X5.795 Y38.423
G1 X5.770 Y38.501
G1 X5.747 Y38.585
G1 X5.690 Y38.836
G1 X5.656 Y39.293
G1 X5.679 Y39.683
G1 X5.713 Y39.843
G1 X5.782 Y40.092
G1 X5.895 Y40.314
G1 X6.039 Y40.488
G1 X6.200 Y40.592
G1 X6.525 Y40.650
G1 X7.010 Y40.647
G1 X7.432 Y40.604
G1 X7.618 Y40.570
G1 X7.756 Y40.537
G1 X8.209 Y40.426
G1 X8.428 Y40.368
G1 X8.809 Y40.249
G1 X9.206 Y40.121
G1 X9.320 Y40.080
G1 X9.498 Y40.020
G1 X9.676 Y39.960
G1 X9.830 Y39.901
G1 X9.981 Y39.841
G1 X10.056 Y39.817
G1 X10.268 Y39.733
G1 X10.536 Y39.643
G1 X10.608 Y39.640
G1 X10.681 Y39.793
G1 X10.835 Y40.058
G1 X11.060 Y40.300
G1 X11.222 Y40.405
G1 X11.414 Y40.469
G1 X11.475 Y40.510
G1 X11.447 Y40.556
G1 X10.934 Y40.571
G1 X10.443 Y40.589
G1 X10.628 Y40.798
G1 X10.849 Y40.985
G1 X10.962 Y41.059
G1 X11.232 Y41.214
G1 X11.378 Y41.273
G1 X11.852 Y41.378
G1 X12.237 Y41.373
G1 X12.666 Y41.272
G1 X12.874 Y41.233
G1 X12.577 Y41.773
G1 X12.427 Y42.029
G1 X12.397 Y42.138
G1 X12.582 Y42.145
G1 X12.893 Y42.103
G1 X13.169 Y42.025
G1 X13.323 Y41.967
G1 X13.420 Y41.922
G1 X13.598 Y41.889
G1 X13.998 Y41.837
G1 X14.393 Y41.746
G1 X14.779 Y41.540
G1 X15.111 Y41.261
G1 X15.179 Y41.182
G1 X15.378 Y40.831
G1 X15.495 Y40.534
G1 X15.511 Y40.477
G1 X15.543 Y40.477
G1 X15.568 Y40.788
G1 X15.518 Y41.123
G1 X15.518 Y41.201
G1 X15.636 Y41.178
G1 X15.956 Y40.990
G1 X16.126 Y40.797
G1 X16.226 Y40.528
G1 X16.258 Y40.267
G1 X16.240 Y40.045
G1 X16.230 Y39.961
G1 X16.308 Y39.937
G1 X16.483 Y39.961
G1 X16.781 Y39.978
G1 X17.099 Y39.896
G1 X17.390 Y39.706
G1 X17.614 Y39.395
G1 X17.715 Y39.120
G1 X17.737 Y39.037
G1 X17.763 Y38.835
G1 X17.704 Y38.848
G1 X17.342 Y39.086
G1 X17.101 Y39.129
G1 X16.887 Y39.097
G1 X16.776 Y38.995
G1 X16.876 Y38.894
G1 X17.193 Y38.631
G1 X17.414 Y38.287
G1 X17.510 Y38.039
G1 X17.553 Y37.801
G1 X17.579 Y37.613
G1 X17.557 Y37.583
G1 X17.500 Y37.615
G1 X17.395 Y37.764
G1 X17.275 Y37.920
G1 X16.932 Y38.093
G1 X16.580 Y38.120
G1 X16.321 Y38.107
G1 X16.541 Y37.900
G1 X16.775 Y37.727
G1 X17.334 Y37.321
G1 X17.679 Y37.074
G1 X17.809 Y36.982
G1 X18.000 Y36.855
G1 X18.355 Y36.624
G1 X18.493 Y36.533
G1 X18.677 Y36.414
G1 X18.895 Y36.277
G1 X19.028 Y36.198
G1 X19.198 Y36.103
G1 X19.376 Y36.016
G1 X19.502 Y35.958
G1 X19.903 Y35.814
G1 X20.122 Y35.730
G1 X20.268 Y35.670
G1 X20.595 Y35.516
G1 X20.831 Y35.400
G1 X21.018 Y35.291
G1 X21.515 Y34.920
G1 X21.929 Y34.511
G1 X22.200 Y34.063
G1 X22.330 Y33.676
G1 X22.372 Y33.284
G1 X22.330 Y32.903
G1 X22.237 Y32.603
G1 X22.221 Y32.556
G1 X22.118 Y32.327
G1 X21.855 Y31.948
G1 X21.758 Y31.798
G1 X21.858 Y31.700
G1 X22.040 Y31.554
G1 X22.167 Y31.473
G1 X22.235 Y31.427
G1 X22.419 Y31.251
G1 X22.541 Y31.154
G1 X22.683 Y31.033
G1 X22.862 Y30.882
G1 X23.073 Y30.704
G1 X23.604 Y30.229
G1 X23.687 Y30.155
G1 X24.567 Y29.276
G1 X25.359 Y28.410
G1 X25.422 Y28.332
G1 X25.505 Y28.230
G1 X25.744 Y27.936
G1 X25.961 Y27.656
G1 X26.208 Y27.323
G1 X26.338 Y27.140
G1 X26.529 Y26.864
G1 X27.169 Y25.854
G1 X27.209 Y25.784
G1 X27.291 Y25.643
G1 X27.389 Y25.530
G1 X27.618 Y25.523
G1 X27.893 Y25.502
G1 X27.982 Y25.470
G1 X28.004 Y25.370
G1 X28.008 Y25.101
G1 X27.964 Y24.849
G1 X27.938 Y24.767
G1 X28.052 Y24.646
G1 X28.360 Y24.289
G1 X28.476 Y24.144
G1 X28.663 Y23.915
G1 X28.946 Y23.590
G1 X29.140 Y23.421
G1 X29.492 Y23.190
G1 X29.912 Y22.790
G1 X30.149 Y22.493
G1 X30.304 Y22.215
G1 X30.385 Y22.029
G1 X30.532 Y21.577
G1 X30.618 Y21.060
G1 X30.622 Y20.578
G1 X30.574 Y20.146
G1 X30.389 Y19.600
G1 X30.204 Y19.295
G1 X29.983 Y19.131
G1 X29.894 Y19.067
G1 X29.806 Y18.903
G1 X29.724 Y18.689
G1 X29.743 Y18.589
G1 X29.885 Y18.393
G1 X30.015 Y18.124
G1 X30.054 Y17.865
G1 X30.018 Y17.615
G1 X29.983 Y17.436
G1 X30.025 Y17.196
G1 X30.065 Y17.016
G1 X30.094 Y16.924
G1 X30.170 Y16.852
G1 X30.306 Y16.717
G1 X30.406 Y16.562
G1 X30.442 Y16.266
G1 X30.426 Y16.023
G1 X30.348 Y15.831
G1 X30.325 Y15.729
G1 X30.347 Y15.579
G1 X30.380 Y15.419
G1 X30.414 Y15.241
G1 X30.487 Y14.878
G1 X30.570 Y14.471
G1 X30.609 Y14.268
G1 X30.695 Y13.820
G1 X30.730 Y13.650
G1 X30.852 Y13.050
G1 X30.884 Y12.889
G1 X30.960 Y12.516
G1 X31.047 Y12.076
G1 X31.085 Y11.907
G1 X31.110 Y11.789
G1 X31.135 Y11.662
G1 X31.184 Y11.442
G1 X31.353 Y10.680
G1 X31.429 Y10.367
G1 X31.523 Y9.978
G1 X31.579 Y9.766
G1 X31.629 Y9.580
G1 X31.661 Y9.453
G1 X31.800 Y8.945
G1 X31.830 Y8.835
G1 X31.862 Y8.717
G1 X31.970 Y8.361
G1 X32.085 Y8.003
G1 X32.107 Y7.930
G1 X32.129 Y7.856
G1 X32.221 Y7.599
G1 X32.295 Y7.396
G1 X32.382 Y7.167
G1 X32.413 Y7.091
G1 X32.497 Y6.890
G1 X32.577 Y6.696
G1 X32.756 Y6.316
G1 X32.957 Y5.910
G1 X33.004 Y5.831
G1 X33.047 Y5.755
G1 X33.106 Y5.653
G1 X33.177 Y5.535
G1 X33.313 Y5.323
G1 X33.654 Y4.851
G1 X34.119 Y4.364
G1 X34.614 Y3.966
G1 X35.187 Y3.657
G1 X35.365 Y3.589
G1 X35.535 Y3.521
G1 X35.827 Y3.436
G1 X36.005 Y3.394
G1 X36.426 Y3.307
G1 X36.678 Y3.274
G1 X37.975 Y3.277
G1 X38.716 Y3.410
G1 X38.789 Y3.428
G1 X39.319 Y3.580
G1 X39.554 Y3.663
G1 X39.765 Y3.749
G1 X39.903 Y3.808
G1 X40.697 Y4.254
G1 X41.345 Y4.780
G1 X41.871 Y5.337
G1 X42.327 Y5.966
G1 X42.537 Y6.315
G1 X42.621 Y6.465
G1 X42.665 Y6.550
G1 X42.747 Y6.702
G1 X42.886 Y6.973
G1 X42.981 Y7.168
G1 X43.020 Y7.253
G1 X43.136 Y7.549
G1 X43.282 Y7.989
G1 X43.453 Y8.869
G1 X43.480 Y9.129
G1 X43.435 Y9.724
G1 X43.294 Y10.261
G1 X43.186 Y10.486
G1 X43.064 Y10.653
G1 X42.875 Y10.807
G1 X42.838 Y10.829
G1 X42.717 Y10.887
G1 X42.519 Y10.924
G1 X41.972 Y10.929
G1 X41.620 Y10.890
G1 X41.082 Y10.782
G1 X40.778 Y10.722
G1 X40.503 Y10.663
G1 X40.114 Y10.572
G1 X39.927 Y10.538
G1 X39.275 Y10.448
G1 X38.686 Y10.453
G1 X38.183 Y10.545
G1 X38.081 Y10.570
G1 X37.805 Y10.689
G1 X37.512 Y10.868
G1 X37.185 Y11.218
G1 X36.884 Y11.818
G1 X36.852 Y11.966
G1 X36.775 Y12.446
G1 X36.791 Y12.593
G1 X36.893 Y12.548
G1 X36.987 Y12.500
G1 X37.122 Y12.486
G1 X37.364 Y12.507
G1 X37.596 Y12.578
G1 X37.665 Y12.601
G1 X38.032 Y12.792
G1 X38.272 Y12.975
G1 X38.514 Y13.211
G1 X39.032 Y13.883
G1 X39.362 Y14.266
G1 X39.733 Y14.593
G1 X40.033 Y14.795
G1 X40.081 Y14.827
G1 X40.422 Y15.010
G1 X40.668 Y15.122
G1 X41.070 Y15.251
G1 X41.337 Y15.308
G1 X41.686 Y15.332
G1 X42.339 Y15.299
G1 X42.594 Y15.230
G1 X42.861 Y15.116
G1 X43.149 Y14.942
G1 X43.436 Y14.708
G1 X43.706 Y14.426
G1 X43.944 Y14.112
G1 X44.183 Y13.734
G1 X44.409 Y13.312
G1 X44.611 Y12.840
G1 X44.645 Y12.740
G1 X44.668 Y12.655
G1 X44.686 Y12.580
G1 X44.772 Y12.237
G1 X44.855 Y11.839
G1 X44.928 Y11.272
G1 X44.971 Y10.832
G1 X44.999 Y9.969
G1 X44.986 Y9.288
G1 X44.926 Y8.717
G1 X44.894 Y8.480
G1 X44.855 Y8.251
G1 X44.686 Y7.498
G1 X44.603 Y7.191
G1 X44.580 Y7.113
G1 X44.516 Y6.948
G1 X44.188 Y6.186
G1 X43.795 Y5.475
G1 X43.445 Y4.969
G1 X43.024 Y4.486
G1 X42.580 Y4.047
G1 X42.035 Y3.606
G1 X41.537 Y3.258
G1 X41.377 Y3.161
G1 X41.248 Y3.089
G1 X41.124 Y3.022
G1 X40.543 Y2.709
G1 X40.413 Y2.649
G1 X40.176 Y2.536
G1 X40.114 Y2.513
G1 X40.043 Y2.490
G1 X39.935 Y2.445
G1 X39.700 Y2.359
G1 X39.052 Y2.136
G1 X38.234 Y1.937
G1 X37.982 Y1.896
G1 X37.457 Y1.834
G1 X36.880 Y1.805
G1 X36.316 Y1.810
G1 X35.827 Y1.851
G1 X35.543 Y1.888
G1 X35.033 Y1.964
G1 X34.814 Y2.013
G1 X34.060 Y2.204
G1 X33.639 Y2.334
G1 X33.367 Y2.435
G1 X33.150 Y2.513
G1 X33.082 Y2.537
G1 X32.958 Y2.597
G1 X32.849 Y2.650
G1 X32.766 Y2.662
G1 X32.698 Y2.572
G1 X32.572 Y2.403
G1 X32.375 Y2.270
G1 X32.219 Y2.192
G1 X32.057 Y2.143
G1 X31.532 Y2.056
G1 X30.949 Y2.042
G1 X30.216 Y2.088
G1 X30.037 Y2.096
G1 X29.978 Y1.980
G1 X29.914 Y1.709
G1 X29.827 Y0.991
G1 X29.817 Y0.766
G1 X29.726 Y0.691
G1 X29.434 Y0.515
G1 X29.093 Y0.392
G1 X28.858 Y0.339
G1 X28.410 Y0.267
G1 X27.889 Y0.246
G1 X27.375 Y0.263
G1 X27.091 Y0.296
G1 X26.362 Y0.389
G1 X25.657 Y0.507
G1 X25.454 Y0.550
G1 X25.057 Y0.627
G1 X24.871 Y0.677
G1 X24.488 Y0.770
G1 X24.174 Y0.854
G1 X23.983 Y0.912
G1 X23.805 Y0.965
G1 X23.647 Y1.007
G1 X23.266 Y1.119
G1 X23.104 Y1.168
G1 X22.974 Y1.208
G1 X22.642 Y1.317
G1 X22.439 Y1.378
G1 X22.264 Y1.422
G1 X22.132 Y1.406
G1 X21.577 Y1.252
G1 X21.512 Y1.227
G1 X21.321 Y1.151
G1 X20.784 Y0.846
G1 X20.630 Y0.745
G1 X20.446 Y0.592
G1 X20.299 Y0.464
G1 X20.219 Y0.432
G1 X19.921 Y0.501
G1 X19.751 Y0.544
G1 X19.255 Y0.651
G1 X18.825 Y0.752
G1 X18.380 Y0.855
G1 X18.031 Y0.949
G1 X17.982 Y0.959
G1 X18.072 Y1.044
G1 X18.212 Y1.165
G1 X18.703 Y1.574
G1 X18.898 Y1.762
G1 X19.376 Y2.211
G1 X19.757 Y2.563
G1 X19.902 Y2.687
G1 X20.029 Y2.791
G1 X20.438 Y3.032
G1 X20.825 Y3.215
G1 X20.854 Y3.230
G1 X20.831 Y3.262
G1 X20.711 Y3.318
G1 X20.265 Y3.472
G1 X20.198 Y3.495
G1 X20.054 Y3.555
G1 X19.854 Y3.650
G1 X19.725 Y3.716
G1 X19.506 Y3.834
G1 X18.747 Y4.332
G1 X18.637 Y4.427
G1 X18.064 Y4.991
G1 X17.859 Y5.219
G1 X17.484 Y5.761
G1 X17.309 Y5.983
G1 X17.198 Y5.801
G1 X17.082 Y5.594
G1 X17.050 Y5.528
G1 X16.985 Y5.413
G1 X16.937 Y5.330
G1 X16.906 Y5.276
G1 X16.802 Y5.109
G1 X16.504 Y4.705
G1 X16.491 Y4.662
G1 X16.868 Y4.638
G1 X17.537 Y4.601
G1 X18.007 Y4.493
G1 X18.284 Y4.376
G1 X18.435 Y4.273
G1 X18.712 Y3.971
G1 X18.858 Y3.619
G1 X18.879 Y3.276
G1 X18.844 Y2.920
G1 X18.743 Y2.568
G1 X18.720 Y2.491
G1 X18.688 Y2.407
G1 X18.655 Y2.328
G1 X18.590 Y2.213
G1 X18.425 Y2.009
G1 X18.219 Y1.855
G1 X17.938 Y1.731
G1 X17.545 Y1.617
G1 X17.200 Y1.576
G1 X16.667 Y1.571
G1 X16.220 Y1.595
G1 X15.803 Y1.669
G1 X15.535 Y1.726
G1 X15.171 Y1.810
G1 X15.066 Y1.812
G1 X15.040 Y1.719
G1 X15.009 Y1.540
G1 X14.871 Y1.174
G1 X14.659 Y0.853
G1 X14.376 Y0.582
G1 X14.028 Y0.365
G1 X13.855 Y0.278
G1 X13.582 Y0.186
G1 X13.444 Y0.152
G1 X13.290 Y0.109
G1 X12.752 Y0.041
G1 X12.318 Y0.030
G1 X12.318 Y0.030
M5 ; laser off
; Path 2
G0 F1000 X12.569 Y0.280
M3 S800
G1 F600 X12.974 Y0.331
G1 X13.195 Y0.364
G1 X13.366 Y0.439
G1 X13.522 Y0.655
G1 X13.574 Y0.753
G1 X13.629 Y0.888
G1 X13.670 Y1.269
G1 X13.665 Y1.514
G1 X13.633 Y1.650
G1 X13.439 Y2.043
G1 X13.168 Y2.337
G1 X13.056 Y2.441
G1 X13.015 Y2.463
G1 X12.983 Y2.479
G1 X13.015 Y2.496
G1 X13.064 Y2.471
G1 X13.115 Y2.446
G1 X13.231 Y2.389
G1 X13.371 Y2.297
G1 X13.716 Y1.930
G1 X13.848 Y1.615
G1 X13.874 Y1.331
G1 X13.857 Y1.058
G1 X13.826 Y0.931
G1 X13.734 Y0.655
G1 X13.715 Y0.569
G1 X13.755 Y0.536
G1 X14.012 Y0.630
G1 X14.206 Y0.764
G1 X14.370 Y0.936
G1 X14.492 Y1.131
G1 X14.563 Y1.337
G1 X14.586 Y1.516
G1 X14.569 Y1.691
G1 X14.489 Y1.964
G1 X14.350 Y2.230
G1 X14.161 Y2.473
G1 X13.936 Y2.677
G1 X13.590 Y2.914
G1 X13.493 Y2.970
G1 X13.392 Y3.028
G1 X13.340 Y3.067
G1 X13.372 Y3.087
G1 X13.592 Y3.054
G1 X13.901 Y2.918
G1 X14.187 Y2.733
G1 X14.449 Y2.477
G1 X14.652 Y2.120
G1 X14.677 Y2.049
G1 X14.727 Y1.863
G1 X14.792 Y1.643
G1 X14.827 Y1.849
G1 X14.814 Y2.099
G1 X14.738 Y2.378
G1 X14.500 Y2.759
G1 X14.156 Y3.102
G1 X13.765 Y3.318
G1 X13.558 Y3.411
G1 X12.861 Y3.564
G1 X12.504 Y3.597
G1 X12.164 Y3.628
G1 X12.083 Y3.642
G1 X12.154 Y3.663
G1 X12.261 Y3.724
G1 X12.318 Y3.836
G1 X12.358 Y3.969
G1 X12.441 Y4.236
G1 X12.537 Y4.578
G1 X12.584 Y4.705
G1 X12.617 Y4.811
G1 X12.615 Y4.864
G1 X12.539 Y4.908
G1 X12.420 Y4.951
G1 X12.282 Y4.976
G1 X11.864 Y5.061
G1 X11.637 Y5.100
G1 X10.973 Y5.126
G1 X10.498 Y5.120
G1 X10.308 Y5.082
G1 X9.959 Y4.949
G1 X9.746 Y4.802
G1 X9.651 Y4.673
G1 X9.593 Y4.494
G1 X9.487 Y4.071
G1 X9.439 Y3.869
G1 X9.402 Y3.734
G1 X9.377 Y3.639
G1 X9.344 Y3.495
G1 X9.261 Y3.144
G1 X9.216 Y2.932
G1 X9.143 Y2.573
G1 X9.076 Y2.226
G1 X9.049 Y1.862
G1 X9.075 Y1.489
G1 X9.170 Y1.329
G1 X9.538 Y1.011
G1 X9.717 Y0.888
G1 X10.008 Y0.728
G1 X10.130 Y0.671
G1 X10.641 Y0.497
G1 X10.792 Y0.447
G1 X10.930 Y0.415
G1 X11.119 Y0.382
G1 X11.872 Y0.281
G1 X12.569 Y0.280
G1 X12.569 Y0.280
M5 ; laser off
; Path 3
G0 F1000 X13.242 Y3.102
M3 S800
G1 F600 X13.203 Y3.110
G1 X13.216 Y3.121
G1 X13.330 Y3.104
G1 X13.310 Y3.092
G1 X13.242 Y3.102
G1 X13.242 Y3.102
M5 ; laser off
; Path 4
G0 F1000 X13.072 Y3.773
M3 S800
G1 F600 X13.109 Y3.921
G1 X13.104 Y3.977
G1 X12.911 Y4.001
G1 X12.693 Y4.008
G1 X12.627 Y3.752
G1 X12.695 Y3.702
G1 X12.880 Y3.682
G1 X13.029 Y3.681
G1 X13.072 Y3.773
G1 X13.072 Y3.773
M5 ; laser off
; Path 5
G0 F1000 X13.120 Y4.299
M3 S800
G1 F600 X13.412 Y4.358
G1 X13.606 Y4.410
G1 X13.909 Y4.550
G1 X14.222 Y4.741
G1 X14.666 Y5.137
G1 X15.043 Y5.606
G1 X15.213 Y5.862
G1 X15.247 Y5.960
G1 X14.605 Y5.635
G1 X14.483 Y5.578
G1 X14.131 Y5.432
G1 X14.062 Y5.408
G1 X13.984 Y5.383
G1 X13.550 Y5.235
G1 X13.157 Y5.132
G1 X13.030 Y5.076
G1 X12.853 Y4.578
G1 X12.802 Y4.412
G1 X12.790 Y4.337
G1 X12.824 Y4.294
G1 X12.919 Y4.277
G1 X13.120 Y4.299
G1 X13.120 Y4.299
M5 ; laser off
; Path 6
G0 F1000 X12.729 Y5.178
M3 S800
G1 F600 X12.772 Y5.245
G1 X12.814 Y5.318
G1 X12.966 Y5.645
G1 X13.024 Y5.788
G1 X13.104 Y6.000
G1 X13.241 Y6.381
G1 X13.378 Y6.754
G1 X13.436 Y6.920
G1 X13.459 Y6.988
G1 X13.518 Y7.163
G1 X13.537 Y7.327
G1 X13.239 Y7.575
G1 X12.969 Y7.724
G1 X12.775 Y7.794
G1 X12.681 Y7.823
G1 X12.311 Y7.853
G1 X11.929 Y7.823
G1 X11.830 Y7.794
G1 X11.500 Y7.686
G1 X11.362 Y7.619
G1 X11.192 Y7.524
G1 X11.030 Y7.422
G1 X10.857 Y7.296
G1 X10.727 Y7.198
G1 X10.609 Y7.092
G1 X10.247 Y6.706
G1 X10.130 Y6.322
G1 X10.074 Y6.110
G1 X9.960 Y5.687
G1 X9.848 Y5.281
G1 X9.833 Y5.207
G1 X9.855 Y5.174
G1 X10.049 Y5.223
G1 X10.284 Y5.299
G1 X10.924 Y5.352
G1 X11.637 Y5.316
G1 X12.140 Y5.229
G1 X12.375 Y5.180
G1 X12.545 Y5.138
G1 X12.653 Y5.123
G1 X12.729 Y5.178
G1 X12.729 Y5.178
M5 ; laser off
; Path 7
G0 F1000 X13.339 Y5.397
M3 S800
G1 F600 X13.641 Y5.503
G1 X13.718 Y5.526
G1 X14.174 Y5.694
G1 X14.352 Y5.766
G1 X14.854 Y6.017
G1 X15.000 Y6.102
G1 X15.446 Y6.397
G1 X15.597 Y6.530
G1 X15.750 Y6.846
G1 X15.932 Y7.263
G1 X15.963 Y7.344
G1 X16.079 Y7.650
G1 X16.129 Y7.782
G1 X16.135 Y7.826
G1 X16.106 Y7.845
G1 X15.949 Y7.788
G1 X15.708 Y7.702
G1 X15.439 Y7.666
G1 X14.856 Y7.667
G1 X14.465 Y7.708
G1 X14.255 Y7.759
G1 X14.074 Y7.795
G1 X13.975 Y7.818
G1 X13.898 Y7.827
G1 X13.874 Y7.771
G1 X13.809 Y7.498
G1 X13.768 Y7.244
G1 X13.698 Y6.829
G1 X13.598 Y6.491
G1 X13.548 Y6.344
G1 X13.509 Y6.242
G1 X13.485 Y6.175
G1 X13.193 Y5.560
G1 X13.122 Y5.370
G1 X13.339 Y5.397
G1 X13.339 Y5.397
M5 ; laser off
; Path 8
G0 F1000 X16.094 Y5.882
M3 S800
G1 F600 X16.506 Y5.945
G1 X16.775 Y6.037
G1 X16.955 Y6.125
G1 X17.090 Y6.213
G1 X17.156 Y6.308
G1 X17.110 Y6.475
G1 X17.017 Y6.702
G1 X16.968 Y6.821
G1 X16.940 Y6.897
G1 X16.888 Y7.058
G1 X16.741 Y7.574
G1 X16.690 Y7.722
G1 X16.564 Y7.743
G1 X16.465 Y7.736
G1 X16.414 Y7.694
G1 X16.265 Y7.411
G1 X16.133 Y7.128
G1 X16.110 Y7.061
G1 X16.085 Y6.990
G1 X15.940 Y6.550
G1 X15.803 Y6.169
G1 X15.684 Y5.898
G1 X15.822 Y5.869
G1 X16.094 Y5.882
G1 X16.094 Y5.882
M5 ; laser off
; Path 9
G0 F1000 X15.324 Y7.861
M3 S800
G1 F600 X15.638 Y7.910
G1 X15.823 Y7.971
G1 X16.026 Y8.067
G1 X16.154 Y8.189
G1 X16.336 Y8.494
G1 X16.491 Y9.030
G1 X16.639 Y9.645
G1 X16.662 Y9.767
G1 X16.680 Y9.854
G1 X16.719 Y9.994
G1 X16.774 Y10.214
G1 X16.826 Y10.506
G1 X16.597 Y10.461
G1 X16.475 Y10.420
G1 X16.070 Y10.332
G1 X15.778 Y10.299
G1 X14.863 Y10.300
G1 X14.563 Y10.341
G1 X13.756 Y10.500
G1 X13.444 Y10.574
G1 X13.347 Y10.603
G1 X12.999 Y10.721
G1 X12.702 Y10.834
G1 X12.637 Y10.858
G1 X12.553 Y10.892
G1 X12.460 Y10.925
G1 X12.371 Y10.953
G1 X12.124 Y11.068
G1 X11.960 Y11.134
G1 X11.725 Y11.230
G1 X11.564 Y11.305
G1 X11.410 Y11.379
G1 X11.208 Y11.476
G1 X10.786 Y11.694
G1 X10.487 Y11.856
G1 X10.247 Y11.995
G1 X10.104 Y12.076
G1 X9.968 Y12.154
G1 X9.821 Y12.215
G1 X9.736 Y12.108
G1 X9.660 Y11.966
G1 X9.592 Y11.848
G1 X9.535 Y11.746
G1 X9.490 Y11.662
G1 X9.433 Y11.560
G1 X9.376 Y11.459
G1 X9.331 Y11.374
G1 X9.239 Y11.205
G1 X9.146 Y11.035
G1 X9.102 Y10.951
G1 X9.044 Y10.849
G1 X8.986 Y10.748
G1 X8.881 Y10.562
G1 X8.825 Y10.460
G1 X8.768 Y10.358
G1 X8.711 Y10.251
G1 X8.707 Y10.171
G1 X8.821 Y10.093
G1 X9.058 Y9.998
G1 X9.514 Y9.986
G1 X9.987 Y9.998
G1 X10.389 Y10.081
G1 X10.632 Y10.141
G1 X10.951 Y10.283
G1 X11.113 Y10.358
G1 X11.277 Y10.427
G1 X11.350 Y10.452
G1 X11.415 Y10.476
G1 X11.710 Y10.552
G1 X11.920 Y10.598
G1 X12.195 Y10.634
G1 X12.602 Y10.581
G1 X12.890 Y10.505
G1 X13.150 Y10.376
G1 X13.288 Y10.291
G1 X13.571 Y10.064
G1 X13.801 Y9.731
G1 X13.965 Y9.267
G1 X13.996 Y8.800
G1 X13.965 Y8.331
G1 X13.939 Y8.146
G1 X13.975 Y8.061
G1 X14.323 Y7.966
G1 X14.879 Y7.873
G1 X15.325 Y7.861
G1 X15.324 Y7.861
M5 ; laser off
; Path 10
G0 F1000 X16.605 Y7.992
M3 S800
G1 F600 X16.623 Y8.098
G1 X16.603 Y8.298
G1 X16.581 Y8.429
G1 X16.517 Y8.302
G1 X16.456 Y8.045
G1 X16.478 Y7.975
G1 X16.605 Y7.992
G1 X16.605 Y7.992
M5 ; laser off
; Path 11
G0 F1000 X16.094 Y10.554
M3 S800
G1 F600 X16.427 Y10.630
G1 X16.589 Y10.688
G1 X16.945 Y10.853
G1 X17.015 Y10.985
G1 X17.076 Y11.142
G1 X17.099 Y11.215
G1 X17.123 Y11.287
G1 X17.170 Y11.413
G1 X17.185 Y11.479
G1 X17.152 Y11.502
G1 X16.695 Y11.501
G1 X16.021 Y11.432
G1 X15.786 Y11.397
G1 X15.649 Y11.378
G1 X15.506 Y11.465
G1 X15.350 Y11.552
G1 X15.298 Y11.583
G1 X15.098 Y11.704
G1 X14.787 Y11.883
G1 X14.517 Y12.040
G1 X14.283 Y12.184
G1 X14.159 Y12.263
G1 X14.023 Y12.346
G1 X13.639 Y12.576
G1 X13.534 Y12.643
G1 X13.485 Y12.675
G1 X13.412 Y12.719
G1 X13.163 Y12.838
G1 X13.063 Y12.856
G1 X12.901 Y12.896
G1 X12.642 Y12.956
G1 X12.334 Y13.016
G1 X11.621 Y13.152
G1 X11.483 Y13.184
G1 X11.151 Y13.268
G1 X10.778 Y13.388
G1 X10.620 Y13.434
G1 X10.491 Y13.437
G1 X10.394 Y13.299
G1 X10.313 Y13.151
G1 X10.269 Y13.066
G1 X10.228 Y12.990
G1 X9.970 Y12.508
G1 X9.961 Y12.456
G1 X10.013 Y12.398
G1 X10.183 Y12.282
G1 X10.371 Y12.171
G1 X11.807 Y11.433
G1 X11.985 Y11.347
G1 X12.025 Y11.331
G1 X12.115 Y11.298
G1 X12.198 Y11.264
G1 X12.312 Y11.220
G1 X12.650 Y11.093
G1 X12.731 Y11.063
G1 X12.845 Y11.012
G1 X12.999 Y10.950
G1 X13.112 Y10.916
G1 X13.282 Y10.863
G1 X13.445 Y10.808
G1 X13.526 Y10.778
G1 X13.631 Y10.748
G1 X13.793 Y10.714
G1 X14.571 Y10.551
G1 X15.314 Y10.512
G1 X16.094 Y10.554
G1 X16.094 Y10.554
M5 ; laser off
; Path 12
G0 F1000 X12.614 Y13.203
M3 S800
G1 F600 X12.423 Y13.372
G1 X11.840 Y13.865
G1 X11.618 Y14.069
G1 X11.419 Y14.191
G1 X11.175 Y14.231
G1 X11.028 Y14.226
G1 X10.946 Y14.188
G1 X10.811 Y14.054
G1 X10.671 Y13.805
G1 X10.630 Y13.669
G1 X10.989 Y13.549
G1 X11.143 Y13.498
G1 X11.889 Y13.313
G1 X12.099 Y13.269
G1 X12.321 Y13.235
G1 X12.475 Y13.211
G1 X12.614 Y13.203
G1 X12.614 Y13.203
M5 ; laser off
; Path 13
G0 F1000 X15.670 Y15.437
M3 S800
G1 F600 X15.716 Y15.466
G1 X15.655 Y15.504
G1 X15.578 Y15.535
G1 X15.425 Y15.579
G1 X15.174 Y15.576
G1 X14.870 Y15.570
G1 X14.433 Y15.621
G1 X13.984 Y15.718
G1 X13.659 Y15.834
G1 X13.614 Y15.851
G1 X13.210 Y16.057
G1 X12.949 Y16.245
G1 X12.683 Y16.502
G1 X12.468 Y16.759
G1 X12.289 Y17.061
G1 X12.166 Y17.252
G1 X12.128 Y17.240
G1 X12.086 Y17.167
G1 X11.905 Y16.747
G1 X11.839 Y16.584
G1 X11.816 Y16.505
G1 X11.800 Y16.469
G1 X11.769 Y16.404
G1 X11.703 Y16.206
G1 X11.668 Y16.026
G1 X11.880 Y15.904
G1 X12.115 Y15.818
G1 X12.926 Y15.624
G1 X13.112 Y15.583
G1 X13.615 Y15.504
G1 X13.923 Y15.463
G1 X14.141 Y15.430
G1 X15.670 Y15.437
G1 X15.670 Y15.437
M5 ; laser off
; Path 14
G0 F1000 X15.936 Y15.677
M3 S800
G1 F600 X15.928 Y15.758
G1 X15.881 Y15.918
G1 X15.786 Y16.299
G1 X15.745 Y16.477
G1 X15.619 Y17.276
G1 X15.606 Y17.636
G1 X15.631 Y17.921
G1 X15.664 Y18.119
G1 X15.738 Y18.376
G1 X15.879 Y18.623
G1 X16.065 Y18.829
G1 X16.277 Y18.965
G1 X16.370 Y19.016
G1 X16.253 Y19.101
G1 X16.167 Y19.134
G1 X16.075 Y19.168
G1 X15.994 Y19.192
G1 X15.819 Y19.253
G1 X15.655 Y19.306
G1 X15.298 Y19.371
G1 X14.830 Y19.403
G1 X14.320 Y19.363
G1 X13.931 Y19.245
G1 X13.780 Y19.178
G1 X13.339 Y18.898
G1 X13.250 Y18.821
G1 X12.931 Y18.508
G1 X12.637 Y18.136
G1 X12.423 Y17.811
G1 X12.360 Y17.702
G1 X12.315 Y17.542
G1 X12.389 Y17.329
G1 X12.504 Y17.114
G1 X12.545 Y17.043
G1 X12.749 Y16.745
G1 X12.962 Y16.525
G1 X13.104 Y16.399
G1 X13.355 Y16.225
G1 X13.453 Y16.164
G1 X13.631 Y16.080
G1 X13.823 Y16.001
G1 X14.137 Y15.907
G1 X14.630 Y15.824
G1 X14.896 Y15.804
G1 X15.281 Y15.828
G1 X15.461 Y15.816
G1 X15.600 Y15.766
G1 X15.673 Y15.733
G1 X15.898 Y15.652
G1 X15.936 Y15.677
G1 X15.936 Y15.677
M5 ; laser off
; Path 15
G0 F1000 X18.435 Y14.930
M3 S800
G1 F600 X18.414 Y15.062
G1 X18.317 Y15.561
G1 X18.288 Y16.020
G1 X18.355 Y16.528
G1 X18.381 Y16.650
G1 X18.411 Y16.773
G1 X18.436 Y16.849
G1 X18.525 Y17.146
G1 X18.580 Y17.281
G1 X18.725 Y17.573
G1 X18.769 Y17.668
G1 X18.664 Y17.760
G1 X18.193 Y18.013
G1 X17.958 Y18.143
G1 X17.832 Y18.210
G1 X17.608 Y18.332
G1 X17.467 Y18.407
G1 X17.411 Y18.433
G1 X17.193 Y18.552
G1 X16.982 Y18.661
G1 X16.694 Y18.806
G1 X16.517 Y18.813
G1 X16.323 Y18.743
G1 X16.155 Y18.617
G1 X16.016 Y18.438
G1 X15.911 Y18.212
G1 X15.830 Y17.752
G1 X15.833 Y17.239
G1 X15.940 Y16.578
G1 X16.100 Y15.944
G1 X16.155 Y15.749
G1 X16.205 Y15.602
G1 X16.346 Y15.512
G1 X16.702 Y15.392
G1 X17.090 Y15.274
G1 X17.172 Y15.241
G1 X17.254 Y15.210
G1 X17.367 Y15.176
G1 X17.569 Y15.113
G1 X17.918 Y15.006
G1 X18.331 Y14.914
G1 X18.406 Y14.906
G1 X18.435 Y14.930
G1 X18.435 Y14.930
M5 ; laser off
; Path 16
G0 F1000 X19.112 Y17.909
M3 S800
G1 F600 X19.354 Y17.945
G1 X19.546 Y17.973
G1 X19.430 Y18.051
G1 X18.841 Y18.347
G1 X18.258 Y18.732
G1 X17.958 Y18.957
G1 X17.794 Y19.083
G1 X17.658 Y19.194
G1 X17.294 Y19.517
G1 X16.823 Y20.020
G1 X16.257 Y20.801
G1 X16.167 Y20.954
G1 X16.104 Y21.064
G1 X16.054 Y21.157
G1 X15.755 Y21.783
G1 X15.697 Y21.919
G1 X15.574 Y22.240
G1 X15.507 Y22.375
G1 X15.436 Y22.418
G1 X15.399 Y22.413
G1 X15.391 Y22.384
G1 X15.473 Y22.164
G1 X15.577 Y21.923
G1 X15.606 Y21.830
G1 X15.637 Y21.715
G1 X15.725 Y21.328
G1 X15.731 Y21.118
G1 X15.672 Y21.003
G1 X15.612 Y20.962
G1 X15.506 Y20.955
G1 X15.324 Y20.991
G1 X15.195 Y21.058
G1 X14.860 Y21.280
G1 X14.733 Y21.368
G1 X14.716 Y21.062
G1 X14.714 Y20.824
G1 X14.679 Y20.715
G1 X14.595 Y20.590
G1 X14.530 Y20.554
G1 X14.355 Y20.549
G1 X14.097 Y20.580
G1 X13.998 Y20.601
G1 X13.967 Y20.578
G1 X13.979 Y20.484
G1 X14.069 Y20.185
G1 X14.250 Y19.817
G1 X14.328 Y19.663
G1 X14.368 Y19.609
G1 X14.428 Y19.576
G1 X14.595 Y19.580
G1 X14.999 Y19.573
G1 X15.424 Y19.523
G1 X15.843 Y19.414
G1 X16.005 Y19.364
G1 X16.807 Y19.053
G1 X17.745 Y18.578
G1 X18.598 Y18.094
G1 X18.838 Y17.959
G1 X18.940 Y17.897
G1 X19.011 Y17.883
G1 X19.112 Y17.909
G1 X19.112 Y17.909
M5 ; laser off
; Path 17
G0 F1000 X20.049 Y18.858
M3 S800
G1 F600 X20.293 Y18.922
G1 X20.418 Y18.963
G1 X20.485 Y18.982
G1 X20.704 Y19.058
G1 X21.037 Y19.185
G1 X21.212 Y19.252
G1 X21.333 Y19.305
G1 X21.426 Y19.344
G1 X21.466 Y19.304
G1 X21.576 Y19.277
G1 X21.978 Y19.412
G1 X22.269 Y19.598
G1 X22.503 Y19.854
G1 X22.624 Y20.031
G1 X22.617 Y20.123
G1 X22.611 Y20.219
G1 X22.630 Y20.245
G1 X22.657 Y20.227
G1 X22.711 Y20.210
G1 X22.820 Y20.420
G1 X22.772 Y20.477
G1 X22.726 Y20.542
G1 X22.734 Y20.596
G1 X22.773 Y20.580
G1 X22.839 Y20.559
G1 X22.873 Y20.583
G1 X22.896 Y20.675
G1 X22.913 Y20.847
G1 X22.835 Y20.926
G1 X22.771 Y20.975
G1 X22.773 Y21.006
G1 X22.859 Y21.027
G1 X22.926 Y21.022
G1 X22.925 Y21.123
G1 X22.842 Y21.546
G1 X22.814 Y21.605
G1 X22.530 Y21.604
G1 X22.218 Y21.592
G1 X22.084 Y21.446
G1 X21.708 Y21.057
G1 X21.255 Y20.801
G1 X21.063 Y20.708
G1 X21.095 Y20.495
G1 X21.217 Y20.166
G1 X21.397 Y19.930
G1 X21.641 Y19.781
G1 X21.897 Y19.753
G1 X22.134 Y19.782
G1 X22.219 Y19.793
G1 X22.177 Y19.709
G1 X21.987 Y19.574
G1 X21.953 Y19.594
G1 X21.963 Y19.636
G1 X21.965 Y19.655
G1 X21.888 Y19.648
G1 X21.544 Y19.657
G1 X21.437 Y19.681
G1 X21.210 Y19.598
G1 X21.138 Y19.574
G1 X20.722 Y19.477
G1 X20.302 Y19.446
G1 X19.903 Y19.476
G1 X19.745 Y19.515
G1 X19.668 Y19.540
G1 X19.596 Y19.566
G1 X19.513 Y19.601
G1 X19.474 Y19.625
G1 X19.433 Y19.650
G1 X19.352 Y19.665
G1 X19.496 Y19.478
G1 X19.527 Y19.413
G1 X19.385 Y19.486
G1 X19.218 Y19.688
G1 X19.044 Y20.069
G1 X19.029 Y20.108
G1 X18.951 Y20.387
G1 X18.856 Y20.928
G1 X18.829 Y21.865
G1 X18.900 Y22.731
G1 X18.917 Y22.909
G1 X18.809 Y22.873
G1 X18.702 Y22.844
G1 X18.739 Y22.912
G1 X18.885 Y23.011
G1 X19.092 Y23.044
G1 X19.237 Y23.034
G1 X19.271 Y22.991
G1 X19.210 Y22.959
G1 X19.131 Y22.946
G1 X19.060 Y22.525
G1 X19.094 Y22.247
G1 X19.183 Y21.969
G1 X19.223 Y21.876
G1 X19.388 Y21.614
G1 X19.433 Y21.551
G1 X19.880 Y21.175
G1 X20.041 Y21.081
G1 X20.166 Y21.024
G1 X20.509 Y20.895
G1 X20.843 Y20.855
G1 X21.239 Y20.913
G1 X21.600 Y21.092
G1 X21.937 Y21.398
G1 X22.059 Y21.561
G1 X22.123 Y21.700
G1 X22.128 Y21.881
G1 X22.037 Y22.118
G1 X21.887 Y22.534
G1 X21.890 Y22.675
G1 X21.942 Y22.786
G1 X21.994 Y22.886
G1 X21.898 Y22.994
G1 X21.671 Y23.153
G1 X21.398 Y23.308
G1 X21.167 Y23.405
G1 X20.948 Y23.469
G1 X20.694 Y23.510
G1 X20.555 Y23.482
G1 X20.605 Y23.330
G1 X20.671 Y23.165
G1 X20.665 Y23.094
G1 X20.626 Y23.077
G1 X20.576 Y23.167
G1 X20.386 Y23.537
G1 X20.120 Y23.540
G1 X19.903 Y23.485
G1 X19.973 Y23.389
G1 X20.098 Y23.231
G1 X20.232 Y23.062
G1 X20.405 Y22.796
G1 X20.374 Y22.773
G1 X20.249 Y22.896
G1 X19.817 Y23.420
G1 X19.747 Y23.464
G1 X19.644 Y23.451
G1 X19.498 Y23.411
G1 X19.332 Y23.351
G1 X19.267 Y23.291
G1 X19.366 Y23.195
G1 X19.564 Y23.039
G1 X19.902 Y22.749
G1 X19.942 Y22.694
G1 X19.932 Y22.660
G1 X19.890 Y22.651
G1 X19.822 Y22.698
G1 X19.201 Y23.207
G1 X18.990 Y23.350
G1 X18.559 Y23.349
G1 X18.207 Y23.180
G1 X17.992 Y22.884
G1 X17.905 Y22.637
G1 X17.885 Y22.339
G1 X17.897 Y22.087
G1 X17.952 Y22.129
G1 X18.000 Y22.236
G1 X18.025 Y22.290
G1 X18.023 Y22.061
G1 X17.964 Y21.379
G1 X17.969 Y20.742
G1 X18.089 Y20.099
G1 X18.250 Y19.690
G1 X18.468 Y19.312
G1 X18.706 Y19.046
G1 X19.054 Y18.863
G1 X19.114 Y18.844
G1 X19.278 Y18.809
G1 X19.611 Y18.807
G1 X20.049 Y18.858
G1 X20.049 Y18.858
M5 ; laser off
; Path 18
G0 F1000 X19.990 Y19.693
M3 S800
G1 F600 X19.961 Y19.820
G1 X19.936 Y19.890
G1 X19.748 Y20.211
G1 X19.689 Y20.262
G1 X19.601 Y20.266
G1 X19.508 Y20.262
G1 X19.482 Y20.371
G1 X19.406 Y20.567
G1 X19.259 Y20.736
G1 X19.125 Y20.844
G1 X19.035 Y20.878
G1 X19.015 Y20.766
G1 X19.079 Y20.387
G1 X19.153 Y20.086
G1 X19.228 Y19.958
G1 X19.463 Y19.794
G1 X19.496 Y19.771
G1 X19.551 Y19.738
G1 X19.700 Y19.684
G1 X19.960 Y19.614
G1 X19.986 Y19.630
G1 X19.990 Y19.693
G1 X19.990 Y19.693
M5 ; laser off
; Path 19
G0 F1000 X20.989 Y20.217
M3 S800
G1 F600 X20.966 Y20.323
G1 X20.915 Y20.514
G1 X20.872 Y20.668
G1 X20.701 Y20.698
G1 X20.444 Y20.719
G1 X20.335 Y20.712
G1 X20.545 Y20.486
G1 X20.932 Y20.190
G1 X20.979 Y20.172
G1 X20.989 Y20.217
G1 X20.989 Y20.217
M5 ; laser off
; Path 20
G0 F1000 X21.495 Y19.366
M3 S800
G1 F600 X21.552 Y19.366
G1 X21.524 Y19.358
G1 X21.495 Y19.366
M5 ; laser off
; Path 21
G0 F1000 X22.232 Y19.845
M3 S800
G1 F600 X22.247 Y19.879
G1 X22.253 Y19.845
G1 X22.238 Y19.811
G1 X22.232 Y19.845
G1 X22.232 Y19.845
M5 ; laser off
; Path 22
G0 F1000 X23.187 Y21.429
M3 S800
G1 F600 X23.535 Y21.642
G1 X23.897 Y21.933
G1 X24.221 Y22.256
G1 X24.453 Y22.562
G1 X24.532 Y22.721
G1 X24.570 Y22.884
G1 X24.503 Y22.959
G1 X24.430 Y22.990
G1 X24.320 Y22.807
G1 X24.153 Y22.536
G1 X23.929 Y22.309
G1 X23.668 Y22.141
G1 X23.391 Y22.051
G1 X23.217 Y22.003
G1 X23.161 Y21.933
G1 X23.004 Y21.712
G1 X22.943 Y21.643
G1 X22.941 Y21.580
G1 X23.038 Y21.368
G1 X23.187 Y21.429
M5 ; laser off
; Path 23
G0 F1000 X23.412 Y22.172
M3 S800
G1 F600 X23.602 Y22.224
G1 X23.783 Y22.328
G1 X24.096 Y22.621
G1 X24.296 Y22.991
G1 X24.305 Y23.115
G1 X24.026 Y23.315
G1 X23.984 Y23.273
G1 X23.926 Y23.230
G1 X23.833 Y23.182
G1 X23.777 Y23.102
G1 X23.800 Y23.051
G1 X23.892 Y23.040
G1 X23.977 Y23.030
G1 X23.862 Y22.794
G1 X23.610 Y22.584
G1 X23.344 Y22.486
G1 X23.192 Y22.540
G1 X23.112 Y22.645
G1 X23.097 Y22.703
G1 X23.065 Y22.715
G1 X23.065 Y22.595
G1 X23.161 Y22.374
G1 X23.195 Y22.246
G1 X23.249 Y22.154
G1 X23.412 Y22.172
G1 X23.412 Y22.172
M5 ; laser off
; Path 24
G0 F1000 X22.529 Y22.515
M3 S800
G1 F600 X22.558 Y22.621
G1 X22.518 Y22.719
G1 X22.438 Y22.771
G1 X22.350 Y22.739
G1 X22.317 Y22.636
G1 X22.360 Y22.521
G1 X22.447 Y22.468
G1 X22.529 Y22.515
G1 X22.529 Y22.515
M5 ; laser off
; Path 25
G0 F1000 X21.646 Y23.495
M3 S800
G1 F600 X22.110 Y23.975
G1 X22.350 Y24.360
G1 X22.117 Y24.587
G1 X22.022 Y24.655
G1 X21.986 Y24.609
G1 X21.912 Y24.484
G1 X21.613 Y24.088
G1 X21.398 Y23.914
G1 X21.170 Y23.801
G1 X20.947 Y23.758
G1 X20.749 Y23.789
G1 X20.571 Y23.887
G1 X20.458 Y24.024
G1 X20.419 Y24.082
G1 X20.395 Y24.067
G1 X20.373 Y23.907
G1 X20.464 Y23.707
G1 X20.811 Y23.628
G1 X21.118 Y23.544
G1 X21.370 Y23.439
G1 X21.502 Y23.405
G1 X21.646 Y23.495
G1 X21.646 Y23.495
M5 ; laser off
; Path 26
G0 F1000 X21.114 Y23.883
M3 S800
G1 F600 X21.428 Y24.054
G1 X21.673 Y24.306
G1 X21.863 Y24.607
G1 X21.883 Y24.725
G1 X21.772 Y24.831
G1 X21.617 Y24.928
G1 X21.546 Y24.935
G1 X21.350 Y24.797
G1 X21.314 Y24.727
G1 X21.345 Y24.677
G1 X21.378 Y24.644
G1 X21.170 Y24.422
G1 X20.923 Y24.345
G1 X20.767 Y24.383
G1 X20.666 Y24.529
G1 X20.634 Y24.567
G1 X20.528 Y24.374
G1 X20.509 Y24.272
G1 X20.536 Y24.159
G1 X20.633 Y23.977
G1 X20.803 Y23.872
G1 X21.114 Y23.883
G1 X21.114 Y23.883
M5 ; laser off
; Path 27
G0 F1000 X20.323 Y23.734
M3 S800
G1 F600 X20.297 Y23.771
G1 X20.292 Y23.741
G1 X20.318 Y23.704
G1 X20.323 Y23.734
G1 X20.323 Y23.734
M5 ; laser off
; Path 28
G0 F1000 X20.174 Y23.753
M3 S800
G1 F600 X20.231 Y23.963
G1 X20.197 Y24.064
G1 X19.676 Y25.160
G1 X19.660 Y25.193
G1 X19.264 Y26.015
G1 X19.157 Y26.218
G1 X19.050 Y26.421
G1 X18.981 Y26.556
G1 X18.895 Y26.709
G1 X18.821 Y26.835
G1 X18.772 Y26.922
G1 X18.687 Y27.064
G1 X18.606 Y27.200
G1 X18.539 Y27.312
G1 X18.206 Y27.843
G1 X18.159 Y27.910
G1 X17.641 Y27.920
G1 X17.091 Y27.943
G1 X16.718 Y28.015
G1 X16.421 Y28.116
G1 X16.163 Y28.244
G1 X16.033 Y28.307
G1 X16.025 Y28.297
G1 X16.046 Y28.267
G1 X16.212 Y28.078
G1 X16.410 Y27.919
G1 X16.479 Y27.875
G1 X16.645 Y27.780
G1 X17.213 Y27.486
G1 X17.367 Y27.393
G1 X17.566 Y27.273
G1 X17.644 Y27.225
G1 X17.967 Y27.001
G1 X18.409 Y26.647
G1 X18.809 Y26.275
G1 X19.145 Y25.909
G1 X19.395 Y25.570
G1 X19.465 Y25.464
G1 X19.585 Y25.257
G1 X19.644 Y25.160
G1 X19.665 Y25.105
G1 X19.742 Y24.864
G1 X19.773 Y24.779
G1 X19.854 Y24.534
G1 X20.033 Y23.842
G1 X20.058 Y23.719
G1 X20.111 Y23.706
G1 X20.174 Y23.753
G1 X20.174 Y23.753
M5 ; laser off
; Path 29
G0 F1000 X19.796 Y23.726
M3 S800
G1 F600 X19.817 Y23.832
G1 X19.685 Y24.364
G1 X19.608 Y24.601
G1 X19.579 Y24.677
G1 X19.549 Y24.754
G1 X19.426 Y25.079
G1 X19.276 Y25.358
G1 X19.157 Y25.532
G1 X18.722 Y26.055
G1 X18.136 Y26.600
G1 X17.569 Y27.010
G1 X17.423 Y27.108
G1 X17.294 Y27.192
G1 X17.090 Y27.311
G1 X16.920 Y27.402
G1 X16.459 Y27.627
G1 X16.183 Y27.811
G1 X16.042 Y27.940
G1 X15.856 Y28.144
G1 X15.683 Y28.414
G1 X15.574 Y28.570
G1 X15.535 Y28.575
G1 X15.491 Y28.541
G1 X15.358 Y28.344
G1 X15.284 Y28.155
G1 X15.332 Y28.097
G1 X15.519 Y27.987
G1 X16.075 Y27.607
G1 X16.709 Y27.039
G1 X16.913 Y26.845
G1 X18.102 Y25.609
G1 X18.452 Y25.219
G1 X18.549 Y25.108
G1 X18.964 Y24.618
G1 X19.262 Y24.254
G1 X19.343 Y24.153
G1 X19.466 Y24.009
G1 X19.749 Y23.704
G1 X19.796 Y23.726
G1 X19.796 Y23.726
M5 ; laser off
; Path 30
G0 F1000 X19.311 Y23.541
M3 S800
G1 F600 X19.474 Y23.595
G1 X19.595 Y23.649
G1 X19.577 Y23.722
G1 X19.514 Y23.805
G1 X19.414 Y23.925
G1 X19.303 Y24.060
G1 X19.208 Y24.178
G1 X19.140 Y24.263
G1 X19.004 Y24.424
G1 X18.714 Y24.760
G1 X18.477 Y25.043
G1 X17.408 Y26.209
G1 X16.548 Y27.056
G1 X16.386 Y27.207
G1 X16.224 Y27.343
G1 X16.054 Y27.487
G1 X15.835 Y27.665
G1 X15.691 Y27.775
G1 X15.519 Y27.901
G1 X15.446 Y27.952
G1 X15.276 Y28.037
G1 X15.232 Y28.009
G1 X15.185 Y27.800
G1 X15.149 Y27.157
G1 X15.168 Y26.548
G1 X15.213 Y26.266
G1 X15.263 Y26.179
G1 X15.485 Y26.057
G1 X15.803 Y25.870
G1 X15.866 Y25.836
G1 X15.963 Y25.771
G1 X16.637 Y25.291
G1 X17.037 Y25.005
G1 X17.213 Y24.872
G1 X17.327 Y24.787
G1 X17.488 Y24.669
G1 X17.756 Y24.470
G1 X18.501 Y23.887
G1 X18.645 Y23.768
G1 X18.861 Y23.605
G1 X19.010 Y23.561
G1 X19.149 Y23.535
G1 X19.311 Y23.541
G1 X19.311 Y23.541
M5 ; laser off
; Path 31
G0 F1000 X22.503 Y24.626
M3 S800
G1 F600 X22.616 Y24.964
G1 X22.658 Y25.272
G1 X22.630 Y25.489
G1 X22.564 Y25.693
G1 X22.380 Y25.913
G1 X22.264 Y25.981
G1 X22.152 Y26.006
G1 X21.901 Y25.954
G1 X21.613 Y25.852
G1 X21.307 Y25.620
G1 X21.096 Y25.370
G1 X21.108 Y25.332
G1 X21.211 Y25.287
G1 X21.740 Y25.017
G1 X22.221 Y24.646
G1 X22.379 Y24.505
G1 X22.435 Y24.511
G1 X22.503 Y24.626
G1 X22.503 Y24.626
M5 ; laser off
; Path 32
G0 F1000 X22.674 Y24.069
M3 S800
G1 F600 X22.691 Y24.085
G1 X22.707 Y24.059
G1 X22.691 Y24.043
G1 X22.674 Y24.069
G1 X22.674 Y24.069
M5 ; laser off
; Path 33
G0 F1000 X23.819 Y23.419
M3 S800
G1 F600 X23.787 Y23.478
G1 X23.714 Y23.518
G1 X23.609 Y23.411
G1 X23.819 Y23.419
G1 X23.819 Y23.419
M5 ; laser off
; Path 34
G0 F1000 X24.625 Y23.015
M3 S800
G1 F600 X24.669 Y23.183
G1 X24.668 Y23.474
G1 X24.613 Y23.733
G1 X24.500 Y23.887
G1 X24.325 Y23.924
G1 X24.158 Y23.901
G1 X23.982 Y23.793
G1 X23.862 Y23.698
G1 X23.824 Y23.630
G1 X23.868 Y23.561
G1 X23.995 Y23.465
G1 X24.487 Y23.082
G1 X24.587 Y22.993
G1 X24.625 Y23.015
G1 X24.625 Y23.015
M5 ; laser off
; Path 35
G0 F1000 X25.037 Y22.791
M3 S800
G1 F600 X25.108 Y23.010
G1 X25.138 Y23.086
G1 X25.162 Y23.160
G1 X25.196 Y23.261
G1 X25.219 Y23.338
G1 X25.243 Y23.414
G1 X25.287 Y23.510
G1 X25.307 Y23.560
G1 X25.313 Y23.501
G1 X25.250 Y23.072
G1 X25.244 Y23.008
G1 X25.349 Y22.999
G1 X25.593 Y23.070
G1 X25.859 Y23.162
G1 X26.151 Y23.280
G1 X26.286 Y23.341
G1 X26.316 Y23.361
G1 X26.317 Y23.414
G1 X26.288 Y23.535
G1 X26.213 Y23.742
G1 X26.159 Y23.923
G1 X26.173 Y23.963
G1 X26.205 Y23.963
G1 X26.271 Y23.867
G1 X26.407 Y23.501
G1 X26.475 Y23.455
G1 X26.594 Y23.509
G1 X26.687 Y23.569
G1 X26.909 Y23.735
G1 X26.953 Y23.805
G1 X26.872 Y23.916
G1 X26.791 Y24.045
G1 X26.798 Y24.080
G1 X26.828 Y24.081
G1 X26.937 Y23.992
G1 X27.064 Y23.888
G1 X27.197 Y23.987
G1 X27.352 Y24.169
G1 X27.407 Y24.297
G1 X27.467 Y24.383
G1 X27.546 Y24.471
G1 X27.621 Y24.620
G1 X27.740 Y25.054
G1 X27.747 Y25.234
G1 X27.587 Y25.262
G1 X27.277 Y25.287
G1 X27.016 Y25.312
G1 X26.167 Y25.450
G1 X25.716 Y25.582
G1 X25.674 Y25.600
G1 X25.584 Y25.634
G1 X25.462 Y25.657
G1 X25.469 Y25.524
G1 X25.491 Y25.383
G1 X25.470 Y25.311
G1 X25.444 Y25.364
G1 X25.415 Y25.454
G1 X25.377 Y25.558
G1 X25.324 Y25.632
G1 X25.276 Y25.597
G1 X25.128 Y25.321
G1 X25.026 Y25.230
G1 X24.918 Y25.187
G1 X24.852 Y25.190
G1 X24.781 Y25.245
G1 X24.698 Y25.312
G1 X24.621 Y25.418
G1 X24.562 Y25.543
G1 X24.556 Y25.666
G1 X24.724 Y26.013
G1 X24.830 Y26.199
G1 X24.855 Y26.267
G1 X24.897 Y26.430
G1 X24.906 Y26.541
G1 X24.866 Y26.635
G1 X24.780 Y26.761
G1 X24.725 Y26.786
G1 X24.700 Y26.687
G1 X24.563 Y26.167
G1 X24.459 Y25.948
G1 X24.360 Y25.875
G1 X24.262 Y25.884
G1 X24.139 Y25.993
G1 X23.987 Y26.182
G1 X23.923 Y26.342
G1 X23.920 Y26.511
G1 X23.996 Y26.708
G1 X24.083 Y26.877
G1 X24.117 Y26.971
G1 X24.132 Y27.014
G1 X24.214 Y27.407
G1 X24.128 Y27.536
G1 X24.011 Y27.631
G1 X23.969 Y27.577
G1 X23.940 Y27.396
G1 X23.899 Y27.149
G1 X23.874 Y27.026
G1 X23.724 Y26.699
G1 X23.590 Y26.639
G1 X23.420 Y26.702
G1 X23.329 Y26.749
G1 X23.349 Y26.648
G1 X23.368 Y26.574
G1 X23.346 Y26.480
G1 X23.279 Y26.333
G1 X23.234 Y26.294
G1 X23.157 Y26.286
G1 X22.999 Y26.322
G1 X22.785 Y26.408
G1 X22.489 Y26.420
G1 X22.194 Y26.421
G1 X22.152 Y26.472
G1 X22.101 Y26.592
G1 X22.099 Y26.747
G1 X22.174 Y26.891
G1 X22.251 Y26.965
G1 X22.376 Y27.015
G1 X22.662 Y27.052
G1 X22.895 Y27.015
G1 X23.096 Y26.926
G1 X23.196 Y26.887
G1 X23.184 Y26.938
G1 X23.154 Y27.055
G1 X23.192 Y27.216
G1 X23.249 Y27.352
G1 X23.382 Y27.813
G1 X23.390 Y27.893
G1 X23.239 Y28.015
G1 X22.872 Y28.278
G1 X22.618 Y28.398
G1 X22.512 Y28.432
G1 X22.459 Y28.473
G1 X22.421 Y28.582
G1 X22.334 Y28.927
G1 X22.303 Y29.095
G1 X22.212 Y29.645
G1 X22.187 Y29.865
G1 X22.114 Y30.678
G1 X22.093 Y31.009
G1 X22.073 Y31.031
G1 X22.040 Y30.986
G1 X21.947 Y30.842
G1 X21.880 Y30.734
G1 X21.858 Y30.696
G1 X21.329 Y29.598
G1 X21.273 Y29.442
G1 X21.216 Y29.278
G1 X21.193 Y29.201
G1 X21.102 Y28.900
G1 X21.039 Y28.630
G1 X20.965 Y28.325
G1 X20.931 Y28.113
G1 X20.901 Y27.955
G1 X20.857 Y27.885
G1 X20.835 Y28.139
G1 X20.835 Y28.316
G1 X20.746 Y28.322
G1 X20.130 Y28.248
G1 X19.879 Y28.207
G1 X19.425 Y28.130
G1 X19.036 Y28.053
G1 X18.817 Y28.012
G1 X18.526 Y27.969
G1 X18.311 Y27.920
G1 X18.307 Y27.871
G1 X18.355 Y27.789
G1 X18.463 Y27.614
G1 X18.630 Y27.335
G1 X19.141 Y26.446
G1 X19.524 Y25.710
G1 X20.196 Y24.292
G1 X20.271 Y24.158
G1 X20.308 Y24.122
G1 X20.366 Y24.256
G1 X20.465 Y24.483
G1 X20.715 Y24.982
G1 X20.770 Y25.084
G1 X20.976 Y25.382
G1 X21.265 Y25.704
G1 X21.516 Y25.893
G1 X21.799 Y26.029
G1 X22.115 Y26.065
G1 X22.305 Y26.059
G1 X22.391 Y26.021
G1 X22.559 Y25.860
G1 X22.671 Y25.674
G1 X22.747 Y25.224
G1 X22.716 Y25.041
G1 X22.663 Y24.781
G1 X22.554 Y24.519
G1 X22.500 Y24.378
G1 X22.513 Y24.330
G1 X22.545 Y24.288
G1 X22.577 Y24.246
G1 X22.593 Y24.221
G1 X22.629 Y24.162
G1 X22.646 Y24.108
G1 X22.615 Y24.120
G1 X22.454 Y24.280
G1 X22.196 Y23.948
G1 X21.734 Y23.451
G1 X21.647 Y23.364
G1 X21.651 Y23.325
G1 X21.771 Y23.230
G1 X21.986 Y23.077
G1 X22.084 Y22.997
G1 X22.335 Y22.991
G1 X22.585 Y22.985
G1 X22.691 Y22.921
G1 X22.873 Y22.805
G1 X22.966 Y22.765
G1 X23.228 Y23.112
G1 X23.901 Y23.841
G1 X24.035 Y23.930
G1 X24.321 Y24.026
G1 X24.558 Y23.942
G1 X24.612 Y23.894
G1 X24.733 Y23.666
G1 X24.766 Y23.374
G1 X24.741 Y23.088
G1 X24.717 Y22.936
G1 X24.737 Y22.838
G1 X24.829 Y22.731
G1 X24.967 Y22.627
G1 X25.037 Y22.791
G1 X25.037 Y22.791
M5 ; laser off
; Path 36
G0 F1000 X24.997 Y23.939
M3 S800
G1 F600 X24.928 Y23.998
G1 X24.886 Y24.103
G1 X24.784 Y24.444
G1 X24.656 Y24.628
G1 X24.533 Y24.820
G1 X24.522 Y24.956
G1 X24.619 Y25.081
G1 X24.754 Y25.152
G1 X24.939 Y25.132
G1 X25.128 Y24.992
G1 X25.252 Y24.837
G1 X25.349 Y24.644
G1 X25.389 Y24.364
G1 X25.353 Y24.117
G1 X25.198 Y23.957
G1 X25.099 Y23.928
G1 X24.997 Y23.939
G1 X24.997 Y23.939
M5 ; laser off
; Path 37
G0 F1000 X25.061 Y25.377
M3 S800
G1 F600 X25.151 Y25.518
G1 X25.217 Y25.698
G1 X25.263 Y26.125
G1 X25.231 Y26.405
G1 X25.135 Y26.658
G1 X24.992 Y26.845
G1 X24.841 Y26.937
G1 X24.800 Y26.914
G1 X24.842 Y26.842
G1 X24.970 Y26.679
G1 X24.990 Y26.530
G1 X24.969 Y26.320
G1 X24.944 Y26.228
G1 X24.797 Y25.943
G1 X24.699 Y25.768
G1 X24.670 Y25.623
G1 X24.709 Y25.497
G1 X24.817 Y25.374
G1 X24.947 Y25.310
G1 X25.061 Y25.377
G1 X25.061 Y25.377
M5 ; laser off
; Path 38
G0 F1000 X24.404 Y26.046
M3 S800
G1 F600 X24.520 Y26.336
G1 X24.596 Y26.661
G1 X24.611 Y26.988
G1 X24.579 Y27.352
G1 X24.365 Y27.667
G1 X24.219 Y27.774
G1 X24.101 Y27.809
G1 X24.072 Y27.780
G1 X24.137 Y27.722
G1 X24.225 Y27.648
G1 X24.280 Y27.555
G1 X24.310 Y27.399
G1 X24.280 Y27.189
G1 X24.206 Y26.947
G1 X24.057 Y26.629
G1 X24.027 Y26.421
G1 X24.136 Y26.197
G1 X24.260 Y26.062
G1 X24.354 Y26.006
G1 X24.404 Y26.046
G1 X24.404 Y26.046
M5 ; laser off
; Path 39
G0 F1000 X23.714 Y26.863
M3 S800
G1 F600 X23.783 Y27.036
G1 X23.842 Y27.309
G1 X23.872 Y27.608
G1 X23.843 Y27.878
G1 X23.793 Y28.060
G1 X23.698 Y28.212
G1 X23.578 Y28.336
G1 X23.424 Y28.443
G1 X23.261 Y28.517
G1 X23.114 Y28.545
G1 X22.980 Y28.517
G1 X22.901 Y28.468
G1 X22.998 Y28.359
G1 X23.217 Y28.180
G1 X23.359 Y28.071
G1 X23.376 Y28.103
G1 X23.307 Y28.308
G1 X23.286 Y28.387
G1 X23.332 Y28.389
G1 X23.396 Y28.328
G1 X23.453 Y28.187
G1 X23.495 Y27.959
G1 X23.487 Y27.741
G1 X23.406 Y27.436
G1 X23.360 Y27.326
G1 X23.306 Y27.163
G1 X23.312 Y27.001
G1 X23.437 Y26.836
G1 X23.613 Y26.773
G1 X23.666 Y26.791
G1 X23.714 Y26.863
G1 X23.714 Y26.863
M5 ; laser off
; Path 40
G0 F1000 X23.307 Y26.785
M3 S800
G1 F600 X23.289 Y26.802
G1 X23.282 Y26.785
G1 X23.299 Y26.768
G1 X23.307 Y26.785
M5 ; laser off
; Path 41
G0 F1000 X19.889 Y28.357
M3 S800
G1 F600 X20.538 Y28.451
G1 X20.852 Y28.511
G1 X20.914 Y28.666
G1 X21.024 Y29.163
G1 X21.055 Y29.290
G1 X21.251 Y29.857
G1 X21.623 Y30.606
G1 X21.670 Y30.687
G1 X21.729 Y30.784
G1 X21.838 Y30.948
G1 X21.949 Y31.106
G1 X22.008 Y31.209
G1 X21.962 Y31.236
G1 X21.828 Y31.199
G1 X21.616 Y31.086
G1 X21.466 Y30.999
G1 X21.224 Y30.825
G1 X21.070 Y30.685
G1 X20.947 Y30.586
G1 X20.781 Y30.434
G1 X20.649 Y30.249
G1 X20.588 Y30.168
G1 X20.389 Y29.967
G1 X20.303 Y29.813
G1 X20.366 Y29.722
G1 X20.398 Y29.693
G1 X20.385 Y29.668
G1 X20.301 Y29.669
G1 X20.211 Y29.679
G1 X20.082 Y29.480
G1 X19.968 Y29.273
G1 X19.729 Y28.748
G1 X19.682 Y28.644
G1 X19.660 Y28.568
G1 X19.638 Y28.493
G1 X19.604 Y28.341
G1 X19.682 Y28.327
G1 X19.889 Y28.357
G1 X19.889 Y28.357
M5 ; laser off
; Path 42
G0 F1000 X19.276 Y28.240
M3 S800
G1 F600 X19.395 Y28.304
G1 X19.446 Y28.435
G1 X19.581 Y28.877
G1 X19.611 Y28.965
G1 X19.776 Y29.349
G1 X20.004 Y29.766
G1 X20.017 Y29.847
G1 X19.820 Y29.971
G1 X19.575 Y30.078
G1 X19.517 Y30.105
G1 X19.611 Y30.119
G1 X19.746 Y30.099
G1 X19.955 Y29.999
G1 X20.112 Y29.946
G1 X20.405 Y30.324
G1 X20.347 Y30.431
G1 X20.127 Y30.669
G1 X19.894 Y30.928
G1 X20.057 Y30.844
G1 X20.364 Y30.553
G1 X20.497 Y30.441
G1 X20.661 Y30.567
G1 X20.797 Y30.694
G1 X20.842 Y30.743
G1 X20.875 Y30.792
G1 X20.834 Y30.892
G1 X20.607 Y31.363
G1 X20.555 Y31.456
G1 X20.458 Y31.597
G1 X20.359 Y31.642
G1 X20.272 Y31.666
G1 X20.122 Y31.727
G1 X19.425 Y32.090
G1 X18.799 Y32.553
G1 X18.647 Y32.680
G1 X18.300 Y33.015
G1 X17.704 Y33.665
G1 X17.550 Y33.858
G1 X17.203 Y34.328
G1 X17.109 Y34.441
G1 X17.074 Y34.456
G1 X17.060 Y34.415
G1 X17.069 Y33.997
G1 X17.062 Y32.744
G1 X16.954 Y31.465
G1 X16.841 Y30.754
G1 X16.833 Y30.577
G1 X16.964 Y30.446
G1 X17.341 Y30.120
G1 X18.185 Y29.221
G1 X18.299 Y29.087
G1 X18.437 Y28.909
G1 X18.574 Y28.731
G1 X18.632 Y28.655
G1 X18.720 Y28.540
G1 X18.801 Y28.429
G1 X18.897 Y28.287
G1 X18.952 Y28.206
G1 X19.061 Y28.206
G1 X19.276 Y28.240
G1 X19.276 Y28.240
M5 ; laser off
; Path 43
G0 F1000 X17.989 Y28.111
M3 S800
G1 F600 X17.954 Y28.208
G1 X17.875 Y28.325
G1 X17.527 Y28.792
G1 X17.334 Y29.033
G1 X17.081 Y29.327
G1 X16.953 Y29.477
G1 X16.921 Y29.501
G1 X16.888 Y29.536
G1 X16.864 Y29.560
G1 X16.840 Y29.584
G1 X16.807 Y29.616
G1 X16.775 Y29.652
G1 X16.751 Y29.679
G1 X16.726 Y29.696
G1 X16.765 Y29.702
G1 X16.881 Y29.595
G1 X17.005 Y29.476
G1 X17.587 Y28.850
G1 X17.998 Y28.308
G1 X18.128 Y28.141
G1 X18.242 Y28.105
G1 X18.700 Y28.164
G1 X18.719 Y28.205
G1 X18.699 Y28.260
G1 X18.582 Y28.410
G1 X17.803 Y29.280
G1 X16.827 Y30.248
G1 X16.767 Y30.255
G1 X16.725 Y30.181
G1 X16.683 Y30.017
G1 X16.658 Y29.859
G1 X16.684 Y29.777
G1 X16.710 Y29.744
G1 X16.636 Y29.758
G1 X16.517 Y29.450
G1 X16.241 Y28.747
G1 X16.184 Y28.628
G1 X16.125 Y28.507
G1 X16.134 Y28.438
G1 X16.179 Y28.393
G1 X16.246 Y28.368
G1 X16.402 Y28.300
G1 X16.535 Y28.241
G1 X16.810 Y28.169
G1 X17.261 Y28.106
G1 X17.685 Y28.090
G1 X17.989 Y28.111
G1 X17.989 Y28.111
M5 ; laser off
; Path 44
G0 F1000 X14.979 Y26.320
M3 S800
G1 F600 X14.977 Y26.383
G1 X14.934 Y26.444
G1 X14.891 Y26.413
G1 X14.892 Y26.340
G1 X14.935 Y26.311
G1 X14.979 Y26.320
G1 X14.979 Y26.320
M5 ; laser off
; Path 45
G0 F1000 X13.139 Y25.705
M3 S800
G1 F600 X13.130 Y25.694
G1 X13.138 Y25.672
G1 X13.139 Y25.705
G1 X13.139 Y25.705
M5 ; laser off
; Path 46
G0 F1000 X9.758 Y26.870
M3 S800
G1 F600 X9.979 Y27.080
G1 X10.129 Y27.398
G1 X10.165 Y27.786
G1 X10.130 Y28.156
G1 X10.098 Y28.291
G1 X10.065 Y28.351
G1 X10.024 Y28.373
G1 X9.946 Y28.353
G1 X9.653 Y28.212
G1 X9.360 Y28.019
G1 X9.116 Y27.754
G1 X9.061 Y27.620
G1 X9.044 Y27.470
G1 X9.068 Y27.296
G1 X9.163 Y27.132
G1 X9.310 Y26.970
G1 X9.464 Y26.869
G1 X9.616 Y26.835
G1 X9.758 Y26.870
G1 X9.758 Y26.870
M5 ; laser off
; Path 47
G0 F1000 X9.420 Y26.682
M3 S800
G1 F600 X9.284 Y26.759
G1 X9.152 Y26.880
G1 X8.928 Y27.225
G1 X8.885 Y27.344
G1 X8.876 Y27.504
G1 X8.912 Y27.741
G1 X8.947 Y27.828
G1 X9.068 Y27.983
G1 X9.310 Y28.200
G1 X9.563 Y28.356
G1 X9.749 Y28.444
G1 X10.029 Y28.551
G1 X10.177 Y28.538
G1 X10.285 Y28.139
G1 X10.322 Y27.681
G1 X10.245 Y27.272
G1 X10.066 Y26.941
G1 X9.940 Y26.813
G1 X9.792 Y26.715
G1 X9.601 Y26.655
G1 X9.420 Y26.682
G1 X9.420 Y26.682
M5 ; laser off
; Path 48
G0 F1000 X10.333 Y22.856
M3 S800
G1 F600 X10.705 Y22.960
G1 X10.803 Y22.992
G1 X10.973 Y23.069
G1 X11.178 Y23.178
G1 X11.442 Y23.345
G1 X11.747 Y23.591
G1 X12.138 Y24.024
G1 X12.445 Y24.466
G1 X12.547 Y24.644
G1 X12.772 Y25.136
G1 X12.790 Y25.198
G1 X12.875 Y25.491
G1 X12.942 Y25.913
G1 X12.956 Y26.584
G1 X12.842 Y27.267
G1 X12.659 Y27.902
G1 X12.611 Y28.038
G1 X12.580 Y28.114
G1 X12.529 Y28.232
G1 X12.332 Y28.655
G1 X12.268 Y28.768
G1 X12.005 Y29.230
G1 X11.642 Y29.772
G1 X11.558 Y29.889
G1 X11.461 Y30.016
G1 X11.360 Y30.137
G1 X10.805 Y30.771
G1 X10.389 Y31.179
G1 X10.021 Y31.468
G1 X9.550 Y31.765
G1 X9.217 Y31.930
G1 X9.165 Y31.953
G1 X9.077 Y31.989
G1 X8.996 Y32.017
G1 X8.761 Y32.101
G1 X8.680 Y32.133
G1 X8.598 Y32.159
G1 X8.461 Y32.192
G1 X8.299 Y32.234
G1 X8.112 Y32.276
G1 X7.654 Y32.363
G1 X7.108 Y32.406
G1 X6.338 Y32.406
G1 X5.931 Y32.369
G1 X5.777 Y32.338
G1 X5.551 Y32.286
G1 X5.308 Y32.216
G1 X5.138 Y32.167
G1 X4.485 Y31.855
G1 X4.414 Y31.812
G1 X4.148 Y31.591
G1 X3.825 Y31.261
G1 X3.654 Y31.005
G1 X3.509 Y30.720
G1 X3.439 Y30.559
G1 X3.322 Y30.271
G1 X3.266 Y30.111
G1 X3.210 Y29.933
G1 X3.179 Y29.823
G1 X3.073 Y29.290
G1 X3.037 Y28.636
G1 X3.095 Y27.986
G1 X3.186 Y27.603
G1 X3.210 Y27.521
G1 X3.233 Y27.439
G1 X3.323 Y27.216
G1 X3.555 Y26.726
G1 X3.857 Y26.291
G1 X4.064 Y26.056
G1 X4.325 Y25.824
G1 X4.490 Y25.685
G1 X4.790 Y25.480
G1 X5.272 Y25.238
G1 X5.317 Y25.257
G1 X5.276 Y25.365
G1 X5.225 Y25.465
G1 X5.162 Y25.608
G1 X5.099 Y25.782
G1 X5.072 Y25.846
G1 X5.069 Y25.989
G1 X5.159 Y25.849
G1 X5.699 Y24.991
G1 X5.893 Y24.754
G1 X6.308 Y24.293
G1 X6.645 Y23.977
G1 X6.704 Y23.933
G1 X6.758 Y23.890
G1 X6.952 Y23.744
G1 X7.165 Y23.591
G1 X7.294 Y23.509
G1 X7.472 Y23.400
G1 X7.545 Y23.366
G1 X7.618 Y23.332
G1 X7.683 Y23.301
G1 X8.023 Y23.160
G1 X8.096 Y23.130
G1 X8.615 Y22.959
G1 X8.850 Y22.900
G1 X9.225 Y22.825
G1 X9.757 Y22.816
G1 X10.333 Y22.856
G1 X10.333 Y22.856
M5 ; laser off
; Path 49
G0 F1000 X11.905 Y22.268
M3 S800
G1 F600 X12.136 Y22.417
G1 X12.385 Y22.637
G1 X12.623 Y22.900
G1 X12.824 Y23.180
G1 X13.017 Y23.535
G1 X13.185 Y23.941
G1 X13.338 Y24.500
G1 X13.370 Y24.652
G1 X13.486 Y25.371
G1 X13.527 Y25.710
G1 X13.546 Y25.980
G1 X13.525 Y26.095
G1 X13.491 Y26.021
G1 X13.454 Y25.908
G1 X13.436 Y25.842
G1 X13.404 Y25.744
G1 X13.371 Y25.651
G1 X13.347 Y25.592
G1 X13.323 Y25.537
G1 X13.127 Y25.102
G1 X12.822 Y24.559
G1 X12.663 Y24.314
G1 X12.399 Y23.924
G1 X12.294 Y23.789
G1 X12.102 Y23.557
G1 X11.856 Y23.325
G1 X11.416 Y22.986
G1 X10.940 Y22.739
G1 X10.834 Y22.684
G1 X10.824 Y22.639
G1 X11.029 Y22.446
G1 X11.261 Y22.299
G1 X11.321 Y22.272
G1 X11.460 Y22.229
G1 X11.670 Y22.222
G1 X11.905 Y22.268
G1 X11.905 Y22.268
M5 ; laser off
; Path 50
G0 F1000 X12.059 Y21.173
M3 S800
G1 F600 X12.312 Y21.280
G1 X12.690 Y21.631
G1 X13.089 Y22.106
G1 X13.212 Y22.291
G1 X13.444 Y22.691
G1 X13.657 Y23.145
G1 X13.754 Y23.377
G1 X13.777 Y23.456
G1 X13.792 Y23.492
G1 X13.824 Y23.557
G1 X13.906 Y23.806
G1 X13.995 Y24.077
G1 X14.104 Y24.466
G1 X14.133 Y24.559
G1 X14.157 Y24.635
G1 X14.188 Y24.754
G1 X14.295 Y25.109
G1 X14.352 Y25.295
G1 X14.471 Y25.668
G1 X14.604 Y26.074
G1 X14.660 Y26.243
G1 X14.672 Y26.313
G1 X14.650 Y26.354
G1 X14.630 Y26.398
G1 X14.670 Y26.412
G1 X14.723 Y26.451
G1 X14.772 Y26.566
G1 X14.859 Y26.802
G1 X14.923 Y26.962
G1 X14.932 Y27.326
G1 X14.965 Y27.800
G1 X15.009 Y27.995
G1 X15.030 Y28.141
G1 X15.058 Y28.234
G1 X15.145 Y28.396
G1 X15.305 Y28.657
G1 X15.519 Y28.859
G1 X15.688 Y28.926
G1 X15.738 Y28.819
G1 X15.809 Y28.679
G1 X15.881 Y28.626
G1 X15.928 Y28.655
G1 X16.010 Y28.810
G1 X16.185 Y29.197
G1 X16.240 Y29.332
G1 X16.278 Y29.434
G1 X16.341 Y29.620
G1 X16.422 Y29.873
G1 X16.422 Y29.957
G1 X16.415 Y29.993
G1 X16.443 Y30.015
G1 X16.492 Y30.097
G1 X16.518 Y30.203
G1 X16.547 Y30.313
G1 X16.585 Y30.483
G1 X16.637 Y30.720
G1 X16.687 Y30.957
G1 X16.719 Y31.135
G1 X16.751 Y31.338
G1 X16.893 Y32.672
G1 X16.898 Y34.537
G1 X16.884 Y34.782
G1 X16.817 Y34.897
G1 X16.726 Y35.057
G1 X16.624 Y35.247
G1 X16.532 Y35.417
G1 X16.482 Y35.515
G1 X16.342 Y35.727
G1 X16.212 Y35.921
G1 X16.181 Y36.021
G1 X16.205 Y36.017
G1 X16.321 Y35.914
G1 X16.561 Y35.749
G1 X16.856 Y35.611
G1 X17.002 Y35.553
G1 X17.263 Y35.467
G1 X17.401 Y35.436
G1 X17.828 Y35.348
G1 X17.982 Y35.316
G1 X18.201 Y35.290
G1 X18.472 Y35.263
G1 X18.983 Y35.231
G1 X19.571 Y35.197
G1 X19.976 Y35.162
G1 X20.789 Y35.077
G1 X20.942 Y35.072
G1 X20.961 Y35.094
G1 X20.891 Y35.143
G1 X20.778 Y35.214
G1 X20.592 Y35.308
G1 X20.351 Y35.427
G1 X20.257 Y35.468
G1 X19.965 Y35.601
G1 X19.839 Y35.654
G1 X19.793 Y35.669
G1 X19.684 Y35.722
G1 X19.311 Y35.899
G1 X19.137 Y35.983
G1 X18.999 Y36.043
G1 X18.922 Y36.079
G1 X18.632 Y36.229
G1 X18.495 Y36.309
G1 X18.291 Y36.433
G1 X18.086 Y36.556
G1 X17.951 Y36.635
G1 X17.828 Y36.712
G1 X17.687 Y36.800
G1 X17.537 Y36.898
G1 X17.056 Y37.243
G1 X16.985 Y37.295
G1 X16.372 Y37.809
G1 X16.284 Y37.856
G1 X16.254 Y37.647
G1 X16.168 Y37.016
G1 X16.141 Y36.949
G1 X16.100 Y36.999
G1 X16.045 Y37.084
G1 X15.906 Y37.331
G1 X15.884 Y37.369
G1 X15.827 Y37.465
G1 X15.710 Y37.638
G1 X15.531 Y37.848
G1 X15.472 Y37.871
G1 X15.440 Y37.833
G1 X15.428 Y37.283
G1 X15.522 Y36.813
G1 X15.774 Y36.286
G1 X15.812 Y36.167
G1 X15.672 Y36.094
G1 X15.442 Y36.065
G1 X15.187 Y36.150
G1 X15.038 Y36.245
G1 X14.905 Y36.382
G1 X14.683 Y36.779
G1 X14.626 Y36.917
G1 X14.603 Y36.997
G1 X14.521 Y37.177
G1 X14.500 Y37.139
G1 X14.505 Y36.627
G1 X14.537 Y36.466
G1 X14.570 Y36.339
G1 X14.653 Y36.122
G1 X14.638 Y36.068
G1 X14.520 Y36.121
G1 X14.007 Y36.538
G1 X13.588 Y37.022
G1 X13.445 Y37.256
G1 X13.258 Y37.680
G1 X13.161 Y38.046
G1 X13.147 Y38.180
G1 X13.108 Y38.226
G1 X12.959 Y38.131
G1 X12.780 Y37.911
G1 X12.671 Y37.684
G1 X12.593 Y37.408
G1 X12.554 Y37.120
G1 X12.561 Y36.855
G1 X12.578 Y36.517
G1 X12.294 Y36.738
G1 X11.930 Y37.118
G1 X11.632 Y37.505
G1 X11.444 Y37.846
G1 X11.361 Y38.026
G1 X11.266 Y38.360
G1 X11.212 Y38.512
G1 X11.138 Y38.408
G1 X11.079 Y38.252
G1 X10.989 Y38.019
G1 X10.967 Y37.950
G1 X10.860 Y37.677
G1 X10.794 Y37.482
G1 X10.713 Y37.245
G1 X10.662 Y37.092
G1 X10.634 Y37.016
G1 X10.585 Y36.898
G1 X10.310 Y36.236
G1 X10.017 Y35.628
G1 X9.921 Y35.442
G1 X9.831 Y35.284
G1 X9.773 Y35.183
G1 X9.684 Y35.027
G1 X9.595 Y34.840
G1 X9.485 Y34.653
G1 X9.317 Y34.388
G1 X9.194 Y34.094
G1 X9.119 Y33.776
G1 X9.093 Y33.442
G1 X9.079 Y33.244
G1 X9.012 Y33.716
G1 X9.029 Y33.891
G1 X9.035 Y33.998
G1 X9.020 Y34.019
G1 X8.982 Y33.983
G1 X8.848 Y33.817
G1 X8.321 Y33.252
G1 X7.776 Y32.760
G1 X7.642 Y32.651
G1 X7.591 Y32.596
G1 X7.608 Y32.566
G1 X7.729 Y32.522
G1 X8.198 Y32.420
G1 X8.362 Y32.387
G1 X8.825 Y32.237
G1 X9.052 Y32.166
G1 X9.214 Y32.100
G1 X9.457 Y31.988
G1 X10.004 Y31.670
G1 X10.608 Y31.177
G1 X11.322 Y30.407
G1 X11.460 Y30.237
G1 X11.517 Y30.161
G1 X11.658 Y29.976
G1 X11.807 Y29.773
G1 X11.943 Y29.569
G1 X12.267 Y29.043
G1 X12.540 Y28.528
G1 X12.739 Y28.079
G1 X12.785 Y27.969
G1 X13.021 Y27.199
G1 X13.123 Y26.626
G1 X13.152 Y26.084
G1 X13.172 Y25.723
G1 X13.202 Y25.755
G1 X13.241 Y25.862
G1 X13.323 Y26.087
G1 X13.355 Y26.184
G1 X13.387 Y26.275
G1 X13.411 Y26.376
G1 X13.500 Y26.717
G1 X13.531 Y26.878
G1 X13.630 Y27.550
G1 X13.660 Y28.181
G1 X13.655 Y28.401
G1 X13.599 Y28.396
G1 X13.506 Y28.367
G1 X13.404 Y28.351
G1 X13.489 Y28.514
G1 X13.579 Y28.570
G1 X13.704 Y28.596
G1 X13.857 Y28.556
G1 X14.005 Y28.440
G1 X14.069 Y28.365
G1 X14.057 Y28.345
G1 X13.925 Y28.375
G1 X13.775 Y28.405
G1 X13.767 Y27.931
G1 X13.744 Y27.322
G1 X13.712 Y26.759
G1 X13.653 Y25.744
G1 X13.568 Y24.980
G1 X13.453 Y24.339
G1 X13.411 Y24.187
G1 X13.379 Y24.060
G1 X13.194 Y23.510
G1 X12.898 Y22.926
G1 X12.589 Y22.546
G1 X12.237 Y22.228
G1 X11.910 Y22.039
G1 X11.605 Y22.003
G1 X11.402 Y22.010
G1 X11.270 Y22.051
G1 X11.030 Y22.191
G1 X10.773 Y22.435
G1 X10.614 Y22.608
G1 X10.498 Y22.597
G1 X10.279 Y22.561
G1 X9.987 Y22.527
G1 X9.767 Y22.509
G1 X9.725 Y22.472
G1 X9.826 Y22.339
G1 X10.368 Y21.849
G1 X10.450 Y21.782
G1 X10.959 Y21.419
G1 X11.055 Y21.368
G1 X11.362 Y21.235
G1 X11.702 Y21.142
G1 X12.059 Y21.173
G1 X12.059 Y21.173
M5 ; laser off
; Path 51
G0 F1000 X13.848 Y19.442
M3 S800
G1 F600 X13.965 Y19.500
G1 X14.016 Y19.539
G1 X13.995 Y19.637
G1 X13.880 Y20.057
G1 X13.826 Y20.251
G1 X13.729 Y20.595
G1 X13.724 Y20.765
G1 X13.826 Y20.748
G1 X14.054 Y20.731
G1 X14.279 Y20.768
G1 X14.465 Y20.894
G1 X14.539 Y21.128
G1 X14.515 Y21.486
G1 X14.492 Y21.598
G1 X14.465 Y21.728
G1 X14.464 Y21.756
G1 X14.494 Y21.749
G1 X14.653 Y21.630
G1 X15.073 Y21.365
G1 X15.278 Y21.280
G1 X15.425 Y21.253
G1 X15.487 Y21.258
G1 X15.491 Y21.365
G1 X15.456 Y21.593
G1 X15.215 Y22.198
G1 X15.062 Y22.532
G1 X14.982 Y22.748
G1 X15.069 Y22.764
G1 X15.197 Y22.730
G1 X15.311 Y22.703
G1 X15.364 Y22.705
G1 X15.379 Y22.739
G1 X15.300 Y23.188
G1 X15.244 Y23.442
G1 X15.195 Y23.679
G1 X15.104 Y24.329
G1 X15.049 Y25.092
G1 X15.025 Y25.448
G1 X15.009 Y25.842
G1 X15.003 Y26.124
G1 X14.969 Y26.202
G1 X14.888 Y26.242
G1 X14.818 Y26.197
G1 X14.719 Y25.930
G1 X14.628 Y25.659
G1 X14.348 Y24.762
G1 X14.295 Y24.584
G1 X14.241 Y24.398
G1 X13.913 Y23.323
G1 X13.830 Y23.086
G1 X13.792 Y23.003
G1 X13.777 Y22.964
G1 X13.726 Y22.828
G1 X13.611 Y22.570
G1 X13.439 Y22.211
G1 X12.980 Y21.530
G1 X12.663 Y21.175
G1 X12.375 Y20.941
G1 X12.126 Y20.844
G1 X11.847 Y20.810
G1 X11.694 Y20.787
G1 X11.672 Y20.758
G1 X11.691 Y20.704
G1 X11.718 Y20.628
G1 X11.904 Y20.287
G1 X12.029 Y20.147
G1 X12.265 Y20.031
G1 X12.658 Y19.936
G1 X13.428 Y19.582
G1 X13.758 Y19.422
G1 X13.848 Y19.442
G1 X13.848 Y19.442
M5 ; laser off
; Path 52
G0 F1000 X12.165 Y17.904
M3 S800
G1 F600 X12.470 Y18.355
G1 X12.775 Y18.715
G1 X13.073 Y19.000
G1 X13.282 Y19.157
G1 X13.363 Y19.209
G1 X13.402 Y19.250
G1 X13.380 Y19.284
G1 X13.242 Y19.364
G1 X13.111 Y19.434
G1 X13.072 Y19.456
G1 X13.032 Y19.478
G1 X12.910 Y19.538
G1 X12.699 Y19.634
G1 X12.484 Y19.710
G1 X12.274 Y19.744
G1 X12.122 Y19.791
G1 X11.949 Y19.921
G1 X11.710 Y20.225
G1 X11.631 Y20.265
G1 X11.502 Y20.235
G1 X11.406 Y20.201
G1 X11.369 Y20.186
G1 X11.208 Y20.126
G1 X11.030 Y20.064
G1 X10.948 Y20.032
G1 X10.769 Y19.967
G1 X10.582 Y19.907
G1 X10.476 Y19.864
G1 X10.437 Y19.828
G1 X10.434 Y19.783
G1 X10.504 Y19.646
G1 X10.724 Y19.403
G1 X11.070 Y19.031
G1 X11.624 Y18.398
G1 X11.770 Y18.218
G1 X11.920 Y18.024
G1 X12.079 Y17.849
G1 X12.123 Y17.852
G1 X12.165 Y17.904
G1 X12.165 Y17.904
M5 ; laser off
; Path 53
G0 F1000 X6.167 Y16.866
M3 S800
G1 F600 X6.210 Y16.883
G1 X6.232 Y16.866
G1 X6.190 Y16.849
G1 X6.167 Y16.866
M5 ; laser off
; Path 54
G0 F1000 X2.018 Y8.962
M3 S800
G1 F600 X2.261 Y8.995
G1 X2.861 Y9.149
G1 X2.950 Y9.180
G1 X3.185 Y9.266
G1 X3.390 Y9.351
G1 X3.696 Y9.503
G1 X3.801 Y9.557
G1 X4.003 Y9.670
G1 X4.175 Y9.765
G1 X4.283 Y9.872
G1 X4.385 Y10.151
G1 X4.433 Y10.312
G1 X4.580 Y10.769
G1 X4.603 Y10.851
G1 X4.627 Y10.931
G1 X4.666 Y11.044
G1 X4.702 Y11.162
G1 X4.741 Y11.281
G1 X4.798 Y11.467
G1 X4.857 Y11.658
G1 X4.879 Y11.748
G1 X4.902 Y11.828
G1 X4.977 Y12.093
G1 X5.017 Y12.254
G1 X5.107 Y12.724
G1 X5.139 Y13.007
G1 X5.154 Y13.342
G1 X5.154 Y13.567
G1 X5.113 Y13.583
G1 X4.984 Y13.600
G1 X4.879 Y13.634
G1 X4.883 Y13.688
G1 X5.010 Y13.701
G1 X5.149 Y13.728
G1 X5.128 Y14.054
G1 X5.097 Y14.353
G1 X4.955 Y14.349
G1 X4.719 Y14.318
G1 X4.572 Y14.296
G1 X4.514 Y14.334
G1 X4.544 Y14.379
G1 X4.676 Y14.412
G1 X5.043 Y14.508
G1 X5.066 Y14.560
G1 X5.050 Y14.709
G1 X4.887 Y15.411
G1 X4.723 Y15.879
G1 X4.550 Y15.806
G1 X4.298 Y15.643
G1 X4.192 Y15.621
G1 X4.169 Y15.648
G1 X4.184 Y15.693
G1 X4.488 Y15.901
G1 X4.652 Y16.051
G1 X4.497 Y16.387
G1 X4.265 Y16.759
G1 X4.138 Y16.919
G1 X3.769 Y17.280
G1 X3.266 Y17.543
G1 X3.190 Y17.570
G1 X2.887 Y17.606
G1 X2.525 Y17.598
G1 X2.245 Y17.543
G1 X1.905 Y17.431
G1 X1.281 Y17.095
G1 X0.925 Y16.782
G1 X0.676 Y16.421
G1 X0.581 Y16.171
G1 X0.518 Y15.885
G1 X0.490 Y15.594
G1 X0.503 Y15.325
G1 X0.543 Y14.988
G1 X0.624 Y14.471
G1 X0.681 Y14.200
G1 X0.738 Y13.938
G1 X0.794 Y13.676
G1 X0.851 Y13.422
G1 X0.925 Y13.075
G1 X0.964 Y12.846
G1 X1.031 Y12.378
G1 X1.044 Y11.839
G1 X1.031 Y11.291
G1 X0.955 Y10.748
G1 X0.850 Y10.215
G1 X0.771 Y9.876
G1 X0.678 Y9.515
G1 X0.649 Y9.262
G1 X1.078 Y9.041
G1 X1.517 Y8.957
G1 X2.018 Y8.962
G1 X2.018 Y8.962
M5 ; laser off
; Path 55
G0 F1000 X1.621 Y5.670
M3 S800
G1 F600 X1.921 Y5.714
G1 X2.197 Y5.755
G1 X2.440 Y5.804
G1 X2.734 Y5.909
G1 X2.811 Y5.932
G1 X3.073 Y6.055
G1 X3.402 Y6.268
G1 X3.651 Y6.509
G1 X3.817 Y6.719
G1 X3.815 Y7.024
G1 X3.808 Y7.606
G1 X3.883 Y8.243
G1 X3.996 Y8.784
G1 X4.052 Y9.013
G1 X4.076 Y9.100
G1 X4.109 Y9.227
G1 X4.147 Y9.390
G1 X4.140 Y9.464
G1 X3.842 Y9.335
G1 X3.493 Y9.157
G1 X3.210 Y9.037
G1 X3.112 Y9.004
G1 X3.039 Y8.980
G1 X2.726 Y8.865
G1 X2.359 Y8.792
G1 X2.127 Y8.749
G1 X1.645 Y8.726
G1 X1.127 Y8.795
G1 X0.928 Y8.852
G1 X0.714 Y8.963
G1 X0.634 Y9.000
G1 X0.596 Y8.984
G1 X0.551 Y8.887
G1 X0.512 Y8.733
G1 X0.380 Y8.111
G1 X0.348 Y7.879
G1 X0.309 Y7.251
G1 X0.318 Y6.465
G1 X0.355 Y6.025
G1 X0.381 Y5.863
G1 X0.420 Y5.722
G1 X0.490 Y5.657
G1 X0.981 Y5.647
G1 X1.621 Y5.670
G1 X1.621 Y5.670
M5 ; laser off
; Path 56
G0 F1000 X4.118 Y3.007
M3 S800
G1 F600 X4.328 Y3.322
G1 X4.350 Y3.358
G1 X4.524 Y3.681
G1 X4.644 Y3.977
G1 X4.694 Y4.115
G1 X4.717 Y4.195
G1 X4.739 Y4.277
G1 X4.847 Y4.781
G1 X4.873 Y5.397
G1 X4.805 Y5.478
G1 X4.713 Y5.526
G1 X4.399 Y5.755
G1 X4.269 Y5.869
G1 X4.095 Y6.102
G1 X3.913 Y6.435
G1 X3.792 Y6.329
G1 X3.380 Y5.972
G1 X2.885 Y5.732
G1 X2.658 Y5.645
G1 X2.294 Y5.553
G1 X2.002 Y5.499
G1 X1.718 Y5.458
G1 X1.402 Y5.423
G1 X0.870 Y5.412
G1 X0.492 Y5.397
G1 X0.577 Y5.117
G1 X0.600 Y5.054
G1 X0.798 Y4.627
G1 X1.040 Y4.253
G1 X1.324 Y3.932
G1 X1.666 Y3.649
G1 X2.083 Y3.388
G1 X2.359 Y3.257
G1 X2.602 Y3.172
G1 X3.145 Y3.038
G1 X3.372 Y2.996
G1 X3.948 Y2.922
G1 X4.047 Y2.920
G1 X4.118 Y3.007
M5 ; laser off
; Path 57
G0 F1000 X4.555 Y2.988
M3 S800
G1 F600 X4.871 Y3.029
G1 X5.235 Y3.071
G1 X5.454 Y3.088
G1 X5.674 Y3.124
G1 X5.989 Y3.231
G1 X6.427 Y3.461
G1 X6.735 Y3.631
G1 X7.029 Y3.802
G1 X7.110 Y3.902
G1 X7.183 Y4.130
G1 X7.215 Y4.321
G1 X7.220 Y4.680
G1 X7.201 Y5.127
G1 X7.105 Y5.484
G1 X7.051 Y5.658
G1 X7.016 Y5.740
G1 X6.917 Y5.755
G1 X6.743 Y5.676
G1 X6.448 Y5.533
G1 X6.038 Y5.404
G1 X5.511 Y5.362
G1 X5.102 Y5.335
G1 X5.090 Y5.188
G1 X5.013 Y4.509
G1 X4.838 Y3.890
G1 X4.814 Y3.820
G1 X4.791 Y3.755
G1 X4.701 Y3.563
G1 X4.602 Y3.368
G1 X4.546 Y3.267
G1 X4.457 Y3.109
G1 X4.401 Y2.986
G1 X4.555 Y2.988
G1 X4.555 Y2.988
M5 ; laser off
; Path 58
G0 F1000 X7.444 Y4.058
M3 S800
G1 F600 X8.021 Y4.570
G1 X8.396 Y5.017
G1 X8.334 Y5.131
G1 X8.003 Y5.683
G1 X7.886 Y5.963
G1 X7.821 Y6.207
G1 X7.762 Y6.296
G1 X7.640 Y6.228
G1 X7.514 Y6.135
G1 X7.318 Y6.003
G1 X7.222 Y5.924
G1 X7.210 Y5.863
G1 X7.233 Y5.772
G1 X7.271 Y5.662
G1 X7.325 Y5.467
G1 X7.426 Y4.901
G1 X7.423 Y4.367
G1 X7.396 Y4.037
G1 X7.444 Y4.058
G1 X7.444 Y4.058
M5 ; laser off
; Path 59
G0 F1000 X9.450 Y4.681
M3 S800
G1 F600 X9.511 Y4.849
G1 X9.638 Y5.306
G1 X9.684 Y5.475
G1 X9.715 Y5.657
G1 X9.602 Y5.839
G1 X9.405 Y6.127
G1 X9.302 Y6.291
G1 X9.271 Y6.345
G1 X9.194 Y6.495
G1 X8.962 Y7.007
G1 X8.912 Y7.142
G1 X8.787 Y7.616
G1 X8.766 Y8.251
G1 X8.759 Y8.433
G1 X8.612 Y8.348
G1 X8.432 Y8.215
G1 X8.380 Y8.214
G1 X8.583 Y8.447
G1 X8.943 Y8.875
G1 X9.169 Y9.153
G1 X9.789 Y9.655
G1 X9.875 Y9.742
G1 X9.457 Y9.762
G1 X8.946 Y9.804
G1 X8.808 Y9.856
G1 X8.601 Y9.949
G1 X8.549 Y9.938
G1 X8.514 Y9.891
G1 X8.428 Y9.674
G1 X8.402 Y9.593
G1 X8.304 Y9.334
G1 X8.208 Y9.042
G1 X8.161 Y8.882
G1 X8.119 Y8.725
G1 X8.070 Y8.540
G1 X8.039 Y8.395
G1 X8.023 Y8.309
G1 X7.894 Y7.402
G1 X7.887 Y7.040
G1 X7.918 Y6.644
G1 X7.981 Y6.268
G1 X8.068 Y5.966
G1 X8.376 Y5.382
G1 X8.610 Y5.119
G1 X8.879 Y4.889
G1 X9.187 Y4.710
G1 X9.407 Y4.618
G1 X9.450 Y4.681
G1 X9.450 Y4.681
M5 ; laser off
; Path 60
G0 F1000 X9.789 Y6.041
M3 S800
G1 F600 X9.878 Y6.355
G1 X9.961 Y6.711
G1 X10.017 Y6.956
G1 X10.073 Y7.202
G1 X10.127 Y7.430
G1 X10.177 Y7.642
G1 X10.218 Y7.811
G1 X10.275 Y8.031
G1 X10.325 Y8.229
G1 X10.356 Y8.331
G1 X10.412 Y8.488
G1 X10.628 Y9.030
G1 X10.894 Y9.534
G1 X10.940 Y9.615
G1 X10.972 Y9.669
G1 X11.014 Y9.761
G1 X11.024 Y9.806
G1 X10.930 Y9.775
G1 X10.219 Y9.411
G1 X9.765 Y9.145
G1 X9.369 Y8.891
G1 X9.157 Y8.744
G1 X9.094 Y8.659
G1 X8.989 Y8.317
G1 X8.972 Y7.912
G1 X9.040 Y7.465
G1 X9.194 Y6.999
G1 X9.430 Y6.505
G1 X9.505 Y6.378
G1 X9.616 Y6.203
G1 X9.706 Y6.064
G1 X9.748 Y6.019
G1 X9.789 Y6.041
G1 X9.789 Y6.041
M5 ; laser off
; Path 61
G0 F1000 X10.527 Y7.308
M3 S800
G1 F600 X10.795 Y7.515
G1 X10.981 Y7.647
G1 X11.289 Y7.820
G1 X11.443 Y7.892
G1 X11.698 Y7.988
G1 X11.976 Y8.051
G1 X12.254 Y8.079
G1 X12.512 Y8.067
G1 X12.926 Y7.981
G1 X13.145 Y7.879
G1 X13.266 Y7.812
G1 X13.504 Y7.663
G1 X13.606 Y7.611
G1 X13.653 Y7.638
G1 X13.705 Y7.873
G1 X13.727 Y8.209
G1 X13.699 Y9.095
G1 X13.644 Y9.434
G1 X13.572 Y9.623
G1 X13.550 Y9.668
G1 X13.407 Y9.827
G1 X13.174 Y10.014
G1 X12.910 Y10.139
G1 X12.567 Y10.175
G1 X12.156 Y10.167
G1 X11.726 Y10.079
G1 X11.656 Y10.054
G1 X11.418 Y9.937
G1 X11.327 Y9.817
G1 X11.208 Y9.639
G1 X10.957 Y9.207
G1 X10.655 Y8.545
G1 X10.622 Y8.455
G1 X10.600 Y8.383
G1 X10.577 Y8.298
G1 X10.461 Y7.904
G1 X10.405 Y7.650
G1 X10.348 Y7.369
G1 X10.335 Y7.162
G1 X10.527 Y7.308
G1 X10.527 Y7.308
M5 ; laser off
; Path 62
G0 F1000 X8.331 Y8.166
M3 S800
G1 F600 X8.356 Y8.183
G1 X8.372 Y8.166
G1 X8.346 Y8.150
G1 X8.331 Y8.166
G1 X8.331 Y8.166
M5 ; laser off
; Path 63
G0 F1000 X17.581 Y4.285
M3 S800
G1 F600 X17.622 Y4.285
G1 X17.602 Y4.276
G1 X17.581 Y4.285
G1 X17.581 Y4.285
M5 ; laser off
; Path 64
G0 F1000 X17.553 Y1.850
M3 S800
G1 F600 X17.886 Y1.970
G1 X18.104 Y2.141
G1 X18.259 Y2.410
G1 X18.315 Y2.767
G1 X18.292 Y3.001
G1 X18.223 Y3.219
G1 X18.104 Y3.430
G1 X17.932 Y3.639
G1 X17.752 Y3.800
G1 X17.731 Y3.803
G1 X17.752 Y3.818
G1 X17.819 Y3.815
G1 X17.982 Y3.723
G1 X18.233 Y3.500
G1 X18.380 Y3.293
G1 X18.403 Y3.259
G1 X18.437 Y3.188
G1 X18.470 Y3.092
G1 X18.494 Y2.979
G1 X18.507 Y2.879
G1 X18.524 Y2.864
G1 X18.558 Y2.913
G1 X18.606 Y3.158
G1 X18.582 Y3.459
G1 X18.468 Y3.742
G1 X18.266 Y3.937
G1 X17.777 Y4.198
G1 X17.731 Y4.224
G1 X17.830 Y4.243
G1 X18.015 Y4.214
G1 X18.250 Y4.171
G1 X18.113 Y4.290
G1 X17.849 Y4.407
G1 X17.512 Y4.487
G1 X17.165 Y4.535
G1 X16.757 Y4.541
G1 X16.377 Y4.536
G1 X16.277 Y4.464
G1 X16.176 Y4.397
G1 X16.170 Y4.422
G1 X16.332 Y4.688
G1 X16.505 Y4.968
G1 X16.604 Y5.137
G1 X16.884 Y5.624
G1 X16.981 Y5.854
G1 X16.940 Y5.870
G1 X16.880 Y5.847
G1 X16.435 Y5.713
G1 X16.265 Y5.674
G1 X15.844 Y5.653
G1 X15.504 Y5.653
G1 X15.400 Y5.518
G1 X15.073 Y5.111
G1 X14.619 Y4.645
G1 X14.498 Y4.547
G1 X14.320 Y4.426
G1 X14.139 Y4.313
G1 X14.043 Y4.257
G1 X13.982 Y4.232
G1 X13.733 Y4.137
G1 X13.636 Y4.095
G1 X13.564 Y4.071
G1 X13.460 Y4.009
G1 X13.365 Y3.878
G1 X13.324 Y3.762
G1 X13.329 Y3.684
G1 X13.385 Y3.635
G1 X13.494 Y3.604
G1 X13.982 Y3.452
G1 X14.048 Y3.427
G1 X14.135 Y3.386
G1 X14.255 Y3.317
G1 X14.510 Y3.140
G1 X14.703 Y2.911
G1 X14.987 Y2.303
G1 X15.050 Y2.199
G1 X15.228 Y2.127
G1 X15.795 Y1.966
G1 X15.940 Y1.930
G1 X16.135 Y1.896
G1 X16.718 Y1.812
G1 X17.107 Y1.811
G1 X17.553 Y1.850
G1 X17.553 Y1.850
M5 ; laser off
; Path 65
G0 F1000 X21.461 Y3.469
M3 S800
G1 F600 X21.670 Y3.546
G1 X21.987 Y3.663
G1 X22.229 Y3.750
G1 X22.488 Y3.842
G1 X22.750 Y3.932
G1 X22.781 Y3.974
G1 X22.778 Y4.036
G1 X22.746 Y4.138
G1 X22.681 Y4.316
G1 X22.569 Y4.596
G1 X22.439 Y4.713
G1 X22.334 Y4.798
G1 X22.099 Y5.012
G1 X21.605 Y5.492
G1 X21.142 Y6.011
G1 X20.575 Y6.779
G1 X20.519 Y6.863
G1 X20.367 Y7.100
G1 X20.196 Y7.371
G1 X20.157 Y7.439
G1 X20.114 Y7.515
G1 X20.056 Y7.616
G1 X19.969 Y7.786
G1 X19.709 Y8.326
G1 X19.626 Y8.519
G1 X19.523 Y8.750
G1 X19.467 Y8.879
G1 X19.433 Y8.984
G1 X19.419 Y9.020
G1 X19.393 Y9.076
G1 X19.361 Y9.174
G1 X19.248 Y9.487
G1 X19.190 Y9.673
G1 X19.131 Y9.855
G1 X19.109 Y9.933
G1 X19.025 Y10.248
G1 X18.995 Y10.367
G1 X18.934 Y10.629
G1 X18.824 Y11.162
G1 X18.767 Y11.444
G1 X18.711 Y11.506
G1 X18.060 Y11.530
G1 X17.416 Y11.511
G1 X17.374 Y11.454
G1 X17.350 Y11.392
G1 X17.326 Y11.333
G1 X17.243 Y11.086
G1 X17.128 Y10.733
G1 X17.018 Y10.240
G1 X16.880 Y9.588
G1 X16.784 Y9.038
G1 X16.843 Y8.387
G1 X16.963 Y7.733
G1 X16.986 Y7.619
G1 X17.016 Y7.494
G1 X17.109 Y7.193
G1 X17.192 Y6.957
G1 X17.213 Y6.889
G1 X17.235 Y6.820
G1 X17.269 Y6.745
G1 X17.655 Y5.966
G1 X18.025 Y5.432
G1 X18.502 Y4.892
G1 X19.068 Y4.417
G1 X19.223 Y4.306
G1 X19.353 Y4.219
G1 X19.490 Y4.136
G1 X19.772 Y3.977
G1 X19.886 Y3.917
G1 X19.984 Y3.871
G1 X20.784 Y3.559
G1 X21.275 Y3.428
G1 X21.461 Y3.469
G1 X21.461 Y3.469
M5 ; laser off
; Path 66
G0 F1000 X28.088 Y0.633
M3 S800
G1 F600 X28.469 Y0.676
G1 X28.882 Y0.761
G1 X29.169 Y0.852
G1 X29.368 Y0.954
G1 X29.568 Y1.065
G1 X29.619 Y1.175
G1 X29.660 Y1.396
G1 X29.808 Y2.039
G1 X29.958 Y2.371
G1 X30.177 Y2.685
G1 X30.310 Y2.822
G1 X30.369 Y2.845
G1 X30.351 Y2.804
G1 X30.324 Y2.761
G1 X30.272 Y2.669
G1 X30.103 Y2.324
G1 X30.106 Y2.280
G1 X30.143 Y2.253
G1 X30.357 Y2.235
G1 X31.264 Y2.304
G1 X31.403 Y2.327
G1 X31.729 Y2.422
G1 X31.799 Y2.446
G1 X31.862 Y2.468
G1 X31.983 Y2.532
G1 X32.195 Y2.671
G1 X32.357 Y2.835
G1 X32.439 Y2.944
G1 X32.436 Y3.164
G1 X32.358 Y4.070
G1 X32.348 Y4.299
G1 X32.361 Y4.332
G1 X32.373 Y4.271
G1 X32.408 Y4.171
G1 X32.431 Y4.132
G1 X32.478 Y4.020
G1 X32.673 Y3.584
G1 X32.723 Y3.356
G1 X32.748 Y3.205
G1 X32.884 Y3.089
G1 X32.992 Y3.037
G1 X33.298 Y2.878
G1 X33.469 Y2.795
G1 X34.336 Y2.470
G1 X34.571 Y2.394
G1 X35.057 Y2.268
G1 X35.268 Y2.220
G1 X35.462 Y2.176
G1 X36.202 Y2.086
G1 X37.061 Y2.067
G1 X37.886 Y2.118
G1 X38.525 Y2.235
G1 X38.663 Y2.268
G1 X38.809 Y2.302
G1 X38.963 Y2.342
G1 X39.117 Y2.384
G1 X39.384 Y2.469
G1 X39.660 Y2.564
G1 X39.814 Y2.623
G1 X39.968 Y2.682
G1 X40.098 Y2.733
G1 X40.171 Y2.764
G1 X40.446 Y2.889
G1 X40.608 Y2.965
G1 X40.754 Y3.041
G1 X40.916 Y3.125
G1 X41.159 Y3.257
G1 X41.459 Y3.436
G1 X41.678 Y3.579
G1 X41.872 Y3.717
G1 X42.026 Y3.830
G1 X42.302 Y4.052
G1 X42.885 Y4.600
G1 X43.372 Y5.171
G1 X43.705 Y5.650
G1 X43.776 Y5.771
G1 X44.150 Y6.499
G1 X44.335 Y6.948
G1 X44.521 Y7.501
G1 X44.643 Y8.006
G1 X44.687 Y8.217
G1 X44.766 Y8.742
G1 X44.807 Y9.046
G1 X44.841 Y9.767
G1 X44.831 Y10.621
G1 X44.795 Y11.027
G1 X44.749 Y11.154
G1 X44.652 Y11.027
G1 X44.401 Y10.708
G1 X44.080 Y10.454
G1 X43.868 Y10.390
G1 X43.629 Y10.381
G1 X43.504 Y10.388
G1 X43.491 Y10.330
G1 X43.526 Y10.181
G1 X43.649 Y9.554
G1 X43.632 Y8.750
G1 X43.599 Y8.539
G1 X43.517 Y8.124
G1 X43.467 Y7.938
G1 X43.418 Y7.769
G1 X43.385 Y7.651
G1 X43.357 Y7.566
G1 X43.308 Y7.447
G1 X42.896 Y6.525
G1 X42.621 Y6.043
G1 X42.545 Y5.925
G1 X42.425 Y5.738
G1 X42.198 Y5.416
G1 X42.083 Y5.272
G1 X41.715 Y4.858
G1 X41.221 Y4.393
G1 X40.608 Y3.943
G1 X40.248 Y3.743
G1 X39.725 Y3.494
G1 X39.498 Y3.410
G1 X39.044 Y3.266
G1 X38.874 Y3.227
G1 X38.440 Y3.133
G1 X38.055 Y3.087
G1 X37.426 Y3.060
G1 X36.883 Y3.078
G1 X36.469 Y3.116
G1 X36.045 Y3.198
G1 X35.470 Y3.351
G1 X35.308 Y3.412
G1 X35.144 Y3.473
G1 X35.076 Y3.495
G1 X34.489 Y3.811
G1 X34.163 Y4.043
G1 X33.803 Y4.374
G1 X33.451 Y4.770
G1 X33.281 Y5.012
G1 X32.938 Y5.525
G1 X32.898 Y5.602
G1 X32.728 Y5.890
G1 X32.310 Y6.787
G1 X32.000 Y7.583
G1 X31.914 Y7.836
G1 X31.750 Y8.336
G1 X31.694 Y8.522
G1 X31.637 Y8.708
G1 X31.581 Y8.903
G1 X31.467 Y9.309
G1 X31.410 Y9.521
G1 X31.304 Y9.927
G1 X31.248 Y10.147
G1 X31.114 Y10.697
G1 X31.070 Y10.883
G1 X30.996 Y11.230
G1 X30.965 Y11.365
G1 X30.842 Y11.916
G1 X30.761 Y12.296
G1 X30.728 Y12.457
G1 X30.645 Y12.855
G1 X30.606 Y13.050
G1 X30.521 Y13.481
G1 X30.470 Y13.727
G1 X30.421 Y13.957
G1 X30.380 Y14.160
G1 X30.294 Y14.611
G1 X30.258 Y14.789
G1 X30.179 Y15.199
G1 X30.096 Y15.523
G1 X29.834 Y15.444
G1 X29.564 Y15.370
G1 X29.255 Y15.343
G1 X29.045 Y15.319
G1 X29.071 Y15.267
G1 X29.165 Y15.208
G1 X29.311 Y15.124
G1 X29.451 Y15.043
G1 X29.582 Y14.958
G1 X29.754 Y14.803
G1 X29.893 Y14.617
G1 X29.952 Y14.348
G1 X29.893 Y14.074
G1 X29.674 Y13.799
G1 X29.533 Y13.697
G1 X29.394 Y13.640
G1 X29.088 Y13.622
G1 X28.825 Y13.675
G1 X28.516 Y13.820
G1 X28.048 Y14.123
G1 X27.908 Y14.219
G1 X27.804 Y14.232
G1 X27.658 Y14.209
G1 X27.122 Y14.130
G1 X26.832 Y14.144
G1 X26.546 Y14.201
G1 X26.454 Y14.226
G1 X26.299 Y14.294
G1 X26.152 Y14.361
G1 X25.770 Y14.650
G1 X25.735 Y14.684
G1 X25.663 Y14.683
G1 X25.508 Y14.606
G1 X25.446 Y14.581
G1 X25.375 Y14.558
G1 X25.227 Y14.498
G1 X25.081 Y14.438
G1 X24.725 Y14.320
G1 X24.532 Y14.261
G1 X24.389 Y14.226
G1 X24.331 Y14.211
G1 X24.157 Y14.167
G1 X23.687 Y14.075
G1 X23.250 Y14.000
G1 X22.709 Y13.955
G1 X21.955 Y13.969
G1 X21.216 Y14.056
G1 X20.486 Y14.218
G1 X20.057 Y14.345
G1 X19.368 Y14.480
G1 X18.704 Y14.564
G1 X17.965 Y14.726
G1 X17.843 Y14.750
G1 X17.731 Y14.775
G1 X17.537 Y14.836
G1 X17.375 Y14.890
G1 X17.249 Y14.930
G1 X16.816 Y15.072
G1 X16.568 Y15.158
G1 X16.468 Y15.190
G1 X16.224 Y15.190
G1 X15.649 Y15.156
G1 X14.846 Y15.157
G1 X13.809 Y15.250
G1 X13.250 Y15.327
G1 X12.762 Y15.421
G1 X12.652 Y15.445
G1 X12.253 Y15.532
G1 X12.107 Y15.563
G1 X11.905 Y15.614
G1 X11.670 Y15.682
G1 X11.435 Y15.749
G1 X11.165 Y15.812
G1 X11.021 Y15.810
G1 X10.987 Y15.775
G1 X10.986 Y15.664
G1 X11.044 Y15.233
G1 X11.086 Y15.004
G1 X11.127 Y14.793
G1 X11.161 Y14.609
G1 X11.220 Y14.476
G1 X11.435 Y14.420
G1 X11.694 Y14.365
G1 X11.848 Y14.263
G1 X12.004 Y14.093
G1 X12.249 Y13.851
G1 X12.564 Y13.609
G1 X12.731 Y13.498
G1 X13.096 Y13.261
G1 X13.388 Y13.083
G1 X13.679 Y12.905
G1 X14.117 Y12.646
G1 X14.239 Y12.575
G1 X14.449 Y12.457
G1 X14.606 Y12.368
G1 X15.535 Y11.837
G1 X15.616 Y11.789
G1 X15.739 Y11.730
G1 X15.940 Y11.737
G1 X16.240 Y11.771
G1 X17.764 Y11.816
G1 X18.696 Y11.756
G1 X18.955 Y11.721
G1 X19.512 Y11.638
G1 X19.668 Y11.604
G1 X19.846 Y11.561
G1 X20.016 Y11.517
G1 X20.495 Y11.348
G1 X21.061 Y11.056
G1 X21.119 Y11.010
G1 X21.379 Y10.779
G1 X21.544 Y10.573
G1 X21.538 Y10.538
G1 X21.494 Y10.566
G1 X21.218 Y10.794
G1 X20.874 Y11.005
G1 X20.341 Y11.229
G1 X19.887 Y11.350
G1 X19.676 Y11.392
G1 X19.449 Y11.432
G1 X19.044 Y11.482
G1 X19.008 Y11.468
G1 X18.998 Y11.417
G1 X19.069 Y11.052
G1 X19.102 Y10.883
G1 X19.128 Y10.758
G1 X19.166 Y10.606
G1 X19.410 Y9.710
G1 X19.433 Y9.626
G1 X19.456 Y9.551
G1 X19.490 Y9.453
G1 X19.524 Y9.354
G1 X19.546 Y9.292
G1 X19.683 Y8.920
G1 X19.750 Y8.759
G1 X20.031 Y8.116
G1 X20.211 Y7.772
G1 X20.267 Y7.667
G1 X20.600 Y7.100
G1 X20.746 Y6.880
G1 X21.098 Y6.374
G1 X21.169 Y6.272
G1 X21.541 Y5.822
G1 X21.680 Y5.662
G1 X22.117 Y5.215
G1 X22.483 Y4.900
G1 X22.511 Y4.942
G1 X22.489 Y5.230
G1 X22.453 Y5.756
G1 X22.471 Y6.128
G1 X22.515 Y6.508
G1 X22.546 Y6.719
G1 X22.658 Y7.220
G1 X22.812 Y7.718
G1 X23.036 Y8.191
G1 X23.224 Y8.477
G1 X23.744 Y9.024
G1 X24.231 Y9.371
G1 X24.376 Y9.445
G1 X24.538 Y9.530
G1 X24.660 Y9.586
G1 X24.798 Y9.639
G1 X25.154 Y9.766
G1 X25.562 Y9.868
G1 X25.713 Y9.910
G1 X25.997 Y9.911
G1 X25.928 Y9.885
G1 X25.802 Y9.852
G1 X25.567 Y9.785
G1 X25.134 Y9.638
G1 X25.008 Y9.589
G1 X24.581 Y9.385
G1 X24.085 Y9.082
G1 X23.888 Y8.934
G1 X23.629 Y8.671
G1 X23.343 Y8.332
G1 X23.150 Y7.998
G1 X23.079 Y7.843
G1 X22.912 Y7.286
G1 X22.862 Y7.041
G1 X22.820 Y6.779
G1 X22.794 Y6.609
G1 X22.765 Y6.229
G1 X22.757 Y5.563
G1 X22.796 Y5.076
G1 X22.821 Y4.920
G1 X22.903 Y4.543
G1 X23.063 Y4.087
G1 X23.128 Y4.058
G1 X23.258 Y4.080
G1 X23.452 Y4.108
G1 X23.351 Y3.996
G1 X23.021 Y3.783
G1 X22.766 Y3.664
G1 X22.687 Y3.641
G1 X22.561 Y3.598
G1 X21.872 Y3.351
G1 X21.726 Y3.291
G1 X21.564 Y3.235
G1 X21.321 Y3.147
G1 X21.151 Y3.088
G1 X20.916 Y2.996
G1 X20.754 Y2.918
G1 X20.543 Y2.813
G1 X20.008 Y2.414
G1 X19.568 Y2.057
G1 X19.370 Y1.876
G1 X19.384 Y1.813
G1 X19.506 Y1.726
G1 X19.655 Y1.626
G1 X19.825 Y1.507
G1 X19.944 Y1.426
G1 X20.065 Y1.342
G1 X20.306 Y1.178
G1 X20.581 Y0.998
G1 X20.674 Y0.981
G1 X20.750 Y1.014
G1 X21.102 Y1.218
G1 X21.284 Y1.312
G1 X21.373 Y1.344
G1 X21.632 Y1.439
G1 X21.710 Y1.464
G1 X21.766 Y1.480
G1 X22.250 Y1.582
G1 X22.407 Y1.608
G1 X23.104 Y1.617
G1 X23.153 Y1.606
G1 X23.088 Y1.595
G1 X22.913 Y1.572
G1 X22.771 Y1.534
G1 X22.744 Y1.507
G1 X22.756 Y1.481
G1 X22.811 Y1.464
G1 X23.112 Y1.376
G1 X23.266 Y1.336
G1 X23.594 Y1.252
G1 X24.012 Y1.142
G1 X24.279 Y1.083
G1 X25.033 Y0.925
G1 X25.438 Y0.841
G1 X25.981 Y0.753
G1 X26.272 Y0.720
G1 X27.318 Y0.614
G1 X28.088 Y0.633
G1 X28.088 Y0.633
M5 ; laser off
; Path 67
G0 F1000 X28.296 Y1.015
M3 S800
G1 F600 X28.185 Y1.051
G1 X28.059 Y1.102
G1 X27.997 Y1.125
G1 X27.958 Y1.140
G1 X28.173 Y1.163
G1 X28.371 Y1.178
G1 X28.493 Y1.224
G1 X28.773 Y1.404
G1 X29.007 Y1.647
G1 X29.099 Y1.743
G1 X29.111 Y1.641
G1 X29.073 Y1.455
G1 X28.977 Y1.254
G1 X28.845 Y1.114
G1 X28.675 Y1.033
G1 X28.459 Y1.007
G1 X28.296 Y1.015
G1 X28.296 Y1.015
M5 ; laser off
; Path 68
G0 F1000 X29.358 Y13.854
M3 S800
G1 F600 X29.511 Y13.928
G1 X29.684 Y14.110
G1 X29.757 Y14.320
G1 X29.677 Y14.626
G1 X29.522 Y14.801
G1 X29.287 Y14.953
G1 X29.174 Y15.012
G1 X28.987 Y15.122
G1 X28.699 Y15.323
G1 X28.451 Y15.586
G1 X28.389 Y15.669
G1 X28.461 Y15.660
G1 X28.687 Y15.631
G1 X29.198 Y15.618
G1 X29.630 Y15.649
G1 X29.918 Y15.745
G1 X30.078 Y15.861
G1 X30.184 Y16.023
G1 X30.235 Y16.225
G1 X30.228 Y16.462
G1 X30.148 Y16.663
G1 X30.018 Y16.786
G1 X29.849 Y16.862
G1 X29.324 Y16.946
G1 X28.768 Y16.926
G1 X28.568 Y16.911
G1 X28.520 Y16.919
G1 X28.534 Y16.935
G1 X28.615 Y16.950
G1 X28.696 Y16.974
G1 X28.801 Y17.015
G1 X29.258 Y17.206
G1 X29.462 Y17.340
G1 X29.608 Y17.475
G1 X29.734 Y17.712
G1 X29.771 Y17.989
G1 X29.710 Y18.242
G1 X29.605 Y18.395
G1 X29.451 Y18.490
G1 X29.245 Y18.525
G1 X29.013 Y18.501
G1 X28.639 Y18.406
G1 X28.341 Y18.289
G1 X28.212 Y18.237
G1 X28.128 Y18.203
G1 X28.038 Y18.170
G1 X27.998 Y18.155
G1 X27.670 Y18.059
G1 X27.560 Y18.032
G1 X27.704 Y17.851
G1 X28.133 Y17.332
G1 X28.198 Y17.241
G1 X28.203 Y17.200
G1 X28.150 Y17.231
G1 X27.769 Y17.641
G1 X27.457 Y17.955
G1 X27.351 Y18.000
G1 X27.274 Y18.016
G1 X27.277 Y18.059
G1 X27.275 Y18.116
G1 X27.183 Y18.199
G1 X27.042 Y18.317
G1 X26.552 Y18.694
G1 X26.417 Y18.572
G1 X26.174 Y18.352
G1 X25.774 Y18.046
G1 X25.705 Y17.948
G1 X25.951 Y17.668
G1 X26.630 Y16.925
G1 X26.937 Y16.448
G1 X26.962 Y16.385
G1 X26.970 Y16.334
G1 X26.953 Y16.357
G1 X26.930 Y16.392
G1 X26.876 Y16.447
G1 X26.380 Y17.058
G1 X25.978 Y17.495
G1 X25.649 Y17.830
G1 X25.585 Y17.849
G1 X25.535 Y17.808
G1 X25.268 Y17.427
G1 X25.244 Y17.392
G1 X25.211 Y17.322
G1 X25.186 Y17.274
G1 X25.170 Y17.311
G1 X25.160 Y17.360
G1 X25.120 Y17.372
G1 X24.887 Y17.281
G1 X24.789 Y17.248
G1 X24.686 Y17.204
G1 X24.642 Y17.164
G1 X24.644 Y17.098
G1 X24.790 Y16.756
G1 X25.041 Y16.230
G1 X25.064 Y16.166
G1 X25.163 Y15.876
G1 X25.188 Y15.790
G1 X25.187 Y15.698
G1 X25.170 Y15.731
G1 X25.149 Y15.778
G1 X25.083 Y15.893
G1 X25.000 Y16.071
G1 X24.912 Y16.253
G1 X24.839 Y16.359
G1 X24.807 Y16.380
G1 X24.805 Y16.330
G1 X24.848 Y15.918
G1 X24.873 Y15.326
G1 X24.804 Y14.734
G1 X24.785 Y14.600
G1 X24.841 Y14.581
G1 X25.531 Y14.800
G1 X25.596 Y14.838
G1 X25.608 Y14.897
G1 X25.583 Y14.989
G1 X25.574 Y15.027
G1 X25.643 Y14.985
G1 X25.819 Y14.829
G1 X25.948 Y14.717
G1 X26.151 Y14.584
G1 X26.494 Y14.419
G1 X26.572 Y14.395
G1 X26.675 Y14.370
G1 X27.206 Y14.300
G1 X27.451 Y14.335
G1 X27.694 Y14.376
G1 X27.930 Y14.401
G1 X28.039 Y14.311
G1 X28.312 Y14.100
G1 X28.615 Y13.938
G1 X28.868 Y13.844
G1 X29.101 Y13.821
G1 X29.358 Y13.854
G1 X29.358 Y13.854
M5 ; laser off
; Path 69
G0 F1000 X29.797 Y17.034
M3 S800
G1 F600 X29.757 Y17.230
G1 X29.663 Y17.190
G1 X29.545 Y17.128
G1 X29.471 Y17.076
G1 X29.436 Y17.037
G1 X29.528 Y17.031
G1 X29.797 Y17.034
G1 X29.797 Y17.034
M5 ; laser off
; Path 70
G0 F1000 X28.236 Y17.137
M3 S800
G1 F600 X28.244 Y17.158
G1 X28.244 Y17.116
G1 X28.236 Y17.137
G1 X28.236 Y17.137
M5 ; laser off
; Path 71
G0 F1000 X27.529 Y18.213
M3 S800
G1 F600 X27.737 Y18.462
G1 X27.900 Y18.770
G1 X27.946 Y19.090
G1 X27.897 Y19.414
G1 X27.729 Y19.726
G1 X27.494 Y19.932
G1 X27.272 Y19.986
G1 X27.076 Y19.938
G1 X26.962 Y19.837
G1 X26.852 Y19.688
G1 X26.711 Y19.346
G1 X26.679 Y19.214
G1 X26.661 Y19.121
G1 X26.637 Y19.007
G1 X26.603 Y18.862
G1 X26.604 Y18.788
G1 X26.664 Y18.732
G1 X27.266 Y18.259
G1 X27.405 Y18.163
G1 X27.529 Y18.213
G1 X27.529 Y18.213
M5 ; laser off
; Path 72
G0 F1000 X28.009 Y18.348
M3 S800
G1 F600 X28.167 Y18.429
G1 X28.227 Y18.484
G1 X28.214 Y18.555
G1 X28.160 Y18.664
G1 X28.098 Y18.728
G1 X28.011 Y18.590
G1 X27.922 Y18.421
G1 X27.856 Y18.298
G1 X28.009 Y18.348
G1 X28.009 Y18.348
M5 ; laser off
; Path 73
G0 F1000 X28.606 Y18.610
M3 S800
G1 F600 X28.785 Y18.666
G1 X28.963 Y18.722
G1 X29.285 Y18.753
G1 X29.517 Y18.757
G1 X29.556 Y18.806
G1 X29.639 Y18.931
G1 X29.751 Y19.118
G1 X30.006 Y19.612
G1 X30.032 Y19.642
G1 X30.048 Y19.575
G1 X30.025 Y19.468
G1 X30.010 Y19.397
G1 X30.057 Y19.395
G1 X30.140 Y19.491
G1 X30.347 Y19.879
G1 X30.439 Y20.251
G1 X30.471 Y20.446
G1 X30.486 Y20.745
G1 X30.423 Y21.379
G1 X30.259 Y21.936
G1 X30.034 Y22.350
G1 X29.947 Y22.469
G1 X29.501 Y22.955
G1 X29.354 Y23.070
G1 X29.149 Y23.195
G1 X28.952 Y23.289
G1 X28.798 Y23.415
G1 X28.344 Y23.950
G1 X28.211 Y24.136
G1 X27.910 Y24.536
G1 X27.851 Y24.536
G1 X27.797 Y24.445
G1 X27.702 Y24.264
G1 X27.661 Y24.190
G1 X27.709 Y24.146
G1 X28.495 Y23.431
G1 X28.686 Y23.263
G1 X28.694 Y23.243
G1 X28.542 Y23.308
G1 X28.308 Y23.487
G1 X28.137 Y23.635
G1 X27.687 Y24.046
G1 X27.604 Y24.090
G1 X27.472 Y23.964
G1 X27.366 Y23.798
G1 X27.431 Y23.450
G1 X27.530 Y23.277
G1 X27.691 Y23.086
G1 X27.782 Y23.011
G1 X27.896 Y22.972
G1 X28.258 Y22.933
G1 X28.590 Y22.901
G1 X28.741 Y22.867
G1 X28.794 Y22.852
G1 X28.767 Y22.838
G1 X28.465 Y22.818
G1 X27.956 Y22.775
G1 X27.846 Y22.737
G1 X27.812 Y22.682
G1 X27.772 Y22.705
G1 X27.721 Y22.737
G1 X27.614 Y22.723
G1 X27.439 Y22.685
G1 X27.294 Y22.646
G1 X26.937 Y22.516
G1 X26.676 Y22.331
G1 X26.435 Y22.018
G1 X26.413 Y21.979
G1 X26.349 Y21.828
G1 X26.321 Y21.628
G1 X26.345 Y21.457
G1 X26.416 Y21.311
G1 X26.530 Y21.196
G1 X26.686 Y21.115
G1 X27.054 Y21.081
G1 X27.454 Y21.105
G1 X27.901 Y21.220
G1 X28.080 Y21.277
G1 X28.233 Y21.288
G1 X27.877 Y21.105
G1 X27.593 Y20.963
G1 X27.456 Y20.884
G1 X27.177 Y20.688
G1 X26.940 Y20.441
G1 X26.857 Y20.287
G1 X26.824 Y20.141
G1 X26.838 Y20.058
G1 X26.979 Y20.125
G1 X27.106 Y20.190
G1 X27.234 Y20.201
G1 X27.387 Y20.184
G1 X27.561 Y20.104
G1 X27.740 Y19.961
G1 X27.903 Y19.766
G1 X27.977 Y19.676
G1 X28.053 Y19.670
G1 X28.266 Y19.760
G1 X28.470 Y19.870
G1 X28.737 Y20.025
G1 X29.080 Y20.234
G1 X29.080 Y20.147
G1 X28.953 Y19.998
G1 X28.799 Y19.810
G1 X28.529 Y19.494
G1 X28.367 Y19.244
G1 X28.237 Y18.930
G1 X28.237 Y18.806
G1 X28.277 Y18.692
G1 X28.331 Y18.610
G1 X28.392 Y18.572
G1 X28.606 Y18.610
G1 X28.606 Y18.610
M5 ; laser off
; Path 74
G0 F1000 X28.254 Y19.307
M3 S800
G1 F600 X28.453 Y19.575
G1 X28.558 Y19.712
G1 X28.533 Y19.724
G1 X28.467 Y19.684
G1 X28.377 Y19.624
G1 X28.250 Y19.557
G1 X28.142 Y19.507
G1 X28.090 Y19.463
G1 X28.066 Y19.416
G1 X28.081 Y19.351
G1 X28.104 Y19.244
G1 X28.142 Y19.156
G1 X28.254 Y19.307
G1 X28.254 Y19.307
M5 ; laser off
; Path 75
G0 F1000 X26.456 Y19.020
M3 S800
G1 F600 X26.491 Y19.160
G1 X26.650 Y19.748
G1 X26.661 Y19.930
G1 X26.655 Y20.139
G1 X26.715 Y20.336
G1 X26.855 Y20.542
G1 X27.049 Y20.720
G1 X27.181 Y20.826
G1 X27.214 Y20.885
G1 X27.096 Y20.885
G1 X26.838 Y20.893
G1 X26.619 Y20.941
G1 X26.392 Y21.101
G1 X26.228 Y21.338
G1 X26.176 Y21.468
G1 X26.162 Y21.627
G1 X26.186 Y21.892
G1 X26.296 Y22.156
G1 X26.436 Y22.351
G1 X26.631 Y22.529
G1 X26.865 Y22.679
G1 X27.123 Y22.789
G1 X27.435 Y22.883
G1 X27.497 Y22.928
G1 X27.477 Y22.992
G1 X27.334 Y23.175
G1 X27.195 Y23.467
G1 X27.152 Y23.559
G1 X27.105 Y23.582
G1 X27.033 Y23.568
G1 X26.893 Y23.476
G1 X26.718 Y23.366
G1 X26.582 Y23.283
G1 X26.536 Y23.234
G1 X26.538 Y23.136
G1 X26.572 Y22.949
G1 X26.582 Y22.756
G1 X26.548 Y22.835
G1 X26.524 Y22.886
G1 X26.499 Y22.942
G1 X26.389 Y23.165
G1 X26.281 Y23.146
G1 X25.786 Y22.944
G1 X25.462 Y22.840
G1 X25.205 Y22.761
G1 X25.139 Y22.678
G1 X25.106 Y22.575
G1 X25.082 Y22.497
G1 X25.043 Y22.384
G1 X24.971 Y22.164
G1 X24.911 Y21.995
G1 X24.795 Y21.707
G1 X24.661 Y21.368
G1 X24.625 Y21.234
G1 X24.593 Y20.896
G1 X24.599 Y20.412
G1 X24.642 Y20.122
G1 X24.768 Y19.995
G1 X25.359 Y19.632
G1 X25.481 Y19.558
G1 X25.660 Y19.443
G1 X25.746 Y19.388
G1 X25.799 Y19.356
G1 X26.412 Y18.948
G1 X26.456 Y19.020
G1 X26.456 Y19.020
M5 ; laser off
; Path 76
G0 F1000 X25.672 Y18.191
M3 S800
G1 F600 X25.884 Y18.373
G1 X26.034 Y18.487
G1 X26.159 Y18.576
G1 X26.332 Y18.776
G1 X26.330 Y18.862
G1 X26.183 Y18.979
G1 X26.054 Y19.075
G1 X25.932 Y19.160
G1 X25.750 Y19.282
G1 X25.660 Y19.337
G1 X25.559 Y19.399
G1 X25.019 Y19.745
G1 X24.820 Y19.856
G1 X24.789 Y19.857
G1 X24.781 Y19.825
G1 X24.794 Y19.768
G1 X24.913 Y19.460
G1 X24.959 Y19.337
G1 X25.016 Y19.160
G1 X25.084 Y18.974
G1 X25.106 Y18.920
G1 X25.147 Y18.835
G1 X25.245 Y18.741
G1 X25.430 Y18.664
G1 X25.535 Y18.612
G1 X25.397 Y18.520
G1 X25.290 Y18.456
G1 X25.253 Y18.403
G1 X25.383 Y18.233
G1 X25.550 Y18.102
G1 X25.672 Y18.191
G1 X25.672 Y18.191
M5 ; laser off
; Path 77
G0 F1000 X24.944 Y18.758
M3 S800
G1 F600 X24.797 Y19.151
G1 X24.738 Y19.320
G1 X24.717 Y19.382
G1 X24.569 Y19.734
G1 X24.555 Y19.774
G1 X24.377 Y20.088
G1 X24.303 Y20.152
G1 X24.206 Y20.209
G1 X24.020 Y20.311
G1 X23.803 Y20.431
G1 X23.611 Y20.532
G1 X23.455 Y20.614
G1 X23.103 Y20.765
G1 X23.031 Y20.556
G1 X23.006 Y20.429
G1 X23.027 Y20.378
G1 X23.185 Y20.235
G1 X23.382 Y20.060
G1 X23.520 Y19.942
G1 X23.598 Y19.879
G1 X23.760 Y19.737
G1 X24.051 Y19.476
G1 X24.245 Y19.298
G1 X24.489 Y19.084
G1 X24.660 Y18.925
G1 X24.857 Y18.743
G1 X24.924 Y18.694
G1 X24.950 Y18.668
G1 X24.975 Y18.652
G1 X24.944 Y18.758
G1 X24.944 Y18.758
M5 ; laser off
; Path 78
G0 F1000 X24.303 Y18.336
M3 S800
G1 F600 X24.639 Y18.418
G1 X24.871 Y18.517
G1 X24.914 Y18.550
G1 X24.875 Y18.593
G1 X24.710 Y18.753
G1 X24.532 Y18.920
G1 X24.346 Y19.089
G1 X23.673 Y19.702
G1 X23.525 Y19.828
G1 X23.379 Y19.956
G1 X23.250 Y20.065
G1 X23.120 Y20.174
G1 X22.975 Y20.285
G1 X22.837 Y19.985
G1 X22.921 Y19.830
G1 X23.128 Y19.507
G1 X23.355 Y19.151
G1 X23.444 Y19.012
G1 X23.881 Y18.342
G1 X23.930 Y18.309
G1 X24.052 Y18.310
G1 X24.303 Y18.336
G1 X24.303 Y18.336
M5 ; laser off
; Path 79
G0 F1000 X24.708 Y17.331
M3 S800
G1 F600 X24.854 Y17.392
G1 X25.167 Y17.547
G1 X25.273 Y17.640
G1 X25.351 Y17.772
G1 X25.426 Y17.903
G1 X25.451 Y17.985
G1 X25.422 Y18.056
G1 X25.291 Y18.196
G1 X25.100 Y18.356
G1 X24.994 Y18.319
G1 X24.708 Y18.207
G1 X24.233 Y18.091
G1 X24.072 Y18.048
G1 X24.070 Y17.990
G1 X24.108 Y17.931
G1 X24.418 Y17.388
G1 X24.498 Y17.302
G1 X24.708 Y17.331
G1 X24.708 Y17.331
M5 ; laser off
; Path 80
G0 F1000 X23.315 Y17.062
M3 S800
G1 F600 X23.818 Y17.164
G1 X23.954 Y17.188
G1 X24.082 Y17.212
G1 X24.252 Y17.247
G1 X24.338 Y17.281
G1 X24.223 Y17.552
G1 X24.140 Y17.704
G1 X24.075 Y17.815
G1 X24.052 Y17.858
G1 X23.983 Y17.957
G1 X23.913 Y18.039
G1 X23.849 Y18.018
G1 X23.760 Y17.976
G1 X23.503 Y17.858
G1 X23.128 Y17.771
G1 X22.950 Y17.738
G1 X22.382 Y17.650
G1 X21.783 Y17.621
G1 X21.029 Y17.657
G1 X20.422 Y17.772
G1 X20.217 Y17.824
G1 X20.074 Y17.865
G1 X19.945 Y17.868
G1 X19.993 Y17.765
G1 X20.044 Y17.651
G1 X19.910 Y17.672
G1 X19.535 Y17.746
G1 X19.406 Y17.720
G1 X19.345 Y17.677
G1 X19.786 Y17.425
G1 X20.179 Y17.332
G1 X20.786 Y17.213
G1 X21.029 Y17.170
G1 X21.337 Y17.128
G1 X21.572 Y17.094
G1 X21.864 Y17.067
G1 X22.318 Y17.036
G1 X23.315 Y17.062
G1 X23.315 Y17.062
M5 ; laser off
; Path 81
G0 F1000 X22.512 Y17.913
M3 S800
G1 F600 X22.764 Y17.949
G1 X23.335 Y18.037
G1 X23.485 Y18.105
G1 X23.458 Y18.144
G1 X23.290 Y18.168
G1 X22.863 Y18.269
G1 X22.800 Y18.294
G1 X22.756 Y18.324
G1 X22.999 Y18.305
G1 X23.522 Y18.229
G1 X23.732 Y18.231
G1 X23.777 Y18.291
G1 X23.746 Y18.369
G1 X23.596 Y18.610
G1 X23.464 Y18.821
G1 X23.384 Y18.948
G1 X23.050 Y19.473
G1 X22.840 Y19.797
G1 X22.803 Y19.841
G1 X22.764 Y19.843
G1 X22.634 Y19.708
G1 X22.423 Y19.476
G1 X22.200 Y19.305
G1 X22.028 Y19.219
G1 X21.950 Y19.200
G1 X21.678 Y19.158
G1 X21.175 Y19.077
G1 X20.867 Y18.953
G1 X20.754 Y18.905
G1 X20.389 Y18.759
G1 X20.316 Y18.728
G1 X19.863 Y18.636
G1 X19.628 Y18.609
G1 X19.400 Y18.593
G1 X19.125 Y18.636
G1 X18.947 Y18.697
G1 X18.872 Y18.730
G1 X18.781 Y18.756
G1 X18.635 Y18.811
G1 X18.523 Y18.940
G1 X18.446 Y19.075
G1 X18.355 Y19.217
G1 X17.979 Y19.879
G1 X17.866 Y20.134
G1 X17.809 Y20.395
G1 X17.773 Y21.303
G1 X17.752 Y22.031
G1 X17.683 Y22.409
G1 X17.719 Y22.756
G1 X17.820 Y23.086
G1 X17.928 Y23.259
G1 X18.090 Y23.404
G1 X18.287 Y23.510
G1 X18.499 Y23.562
G1 X18.655 Y23.603
G1 X18.383 Y23.864
G1 X17.822 Y24.299
G1 X17.472 Y24.571
G1 X17.269 Y24.718
G1 X17.034 Y24.883
G1 X16.872 Y25.000
G1 X16.507 Y25.261
G1 X16.398 Y25.335
G1 X16.175 Y25.482
G1 X15.977 Y25.611
G1 X15.891 Y25.668
G1 X15.765 Y25.748
G1 X15.576 Y25.868
G1 X15.438 Y25.954
G1 X15.304 Y26.028
G1 X15.235 Y26.057
G1 X15.235 Y26.011
G1 X15.250 Y25.914
G1 X15.299 Y25.744
G1 X15.333 Y25.587
G1 X15.349 Y25.549
G1 X15.365 Y25.497
G1 X15.349 Y25.456
G1 X15.333 Y25.508
G1 X15.311 Y25.549
G1 X15.267 Y25.592
G1 X15.242 Y25.624
G1 X15.229 Y25.596
G1 X15.241 Y25.367
G1 X15.317 Y24.694
G1 X15.400 Y24.043
G1 X15.438 Y23.780
G1 X15.580 Y22.926
G1 X15.774 Y22.350
G1 X15.969 Y21.948
G1 X16.046 Y21.800
G1 X16.321 Y21.309
G1 X16.393 Y21.188
G1 X16.498 Y21.021
G1 X16.619 Y20.835
G1 X17.214 Y20.040
G1 X17.942 Y19.284
G1 X18.525 Y18.807
G1 X18.592 Y18.766
G1 X18.854 Y18.593
G1 X19.392 Y18.313
G1 X19.498 Y18.265
G1 X19.988 Y18.119
G1 X20.551 Y18.000
G1 X20.738 Y17.968
G1 X20.940 Y17.923
G1 X21.086 Y17.887
G1 X22.512 Y17.912
G1 X22.512 Y17.913
M5 ; laser off
; Path 82
G0 F1000 X24.166 Y20.386
M3 S800
G1 F600 X24.081 Y20.507
G1 X23.885 Y20.683
G1 X23.668 Y20.842
G1 X23.517 Y20.912
G1 X23.461 Y20.937
G1 X23.396 Y20.962
G1 X23.328 Y20.987
G1 X23.205 Y21.023
G1 X23.128 Y21.027
G1 X23.105 Y20.998
G1 X23.112 Y20.919
G1 X23.206 Y20.849
G1 X23.363 Y20.765
G1 X23.909 Y20.488
G1 X24.030 Y20.421
G1 X24.145 Y20.357
G1 X24.166 Y20.386
G1 X24.166 Y20.386
M5 ; laser off
; Path 83
G0 F1000 X24.475 Y20.525
M3 S800
G1 F600 X24.449 Y20.800
G1 X24.462 Y21.114
G1 X24.510 Y21.412
G1 X24.586 Y21.635
G1 X24.645 Y21.766
G1 X24.896 Y22.407
G1 X24.929 Y22.506
G1 X24.888 Y22.559
G1 X24.775 Y22.697
G1 X24.679 Y22.764
G1 X24.587 Y22.633
G1 X24.510 Y22.500
G1 X24.490 Y22.463
G1 X24.147 Y22.044
G1 X23.806 Y21.736
G1 X23.509 Y21.517
G1 X23.276 Y21.368
G1 X23.190 Y21.315
G1 X23.159 Y21.269
G1 X23.219 Y21.250
G1 X23.674 Y21.088
G1 X23.733 Y21.064
G1 X24.076 Y20.810
G1 X24.269 Y20.622
G1 X24.405 Y20.465
G1 X24.454 Y20.417
G1 X24.476 Y20.426
G1 X24.475 Y20.525
G1 X24.475 Y20.525
M5 ; laser off
; Path 84
G0 F1000 X29.620 Y22.534
M3 S800
G1 F600 X29.621 Y22.596
G1 X29.646 Y22.601
G1 X29.645 Y22.503
G1 X29.620 Y22.534
G1 X29.620 Y22.534
M5 ; laser off
; Path 85
G0 F1000 X30.227 Y20.530
M3 S800
G1 F600 X30.205 Y20.568
G1 X30.139 Y20.691
G1 X30.103 Y20.920
G1 X30.076 Y21.144
G1 X30.027 Y21.281
G1 X29.993 Y21.336
G1 X29.877 Y21.517
G1 X29.759 Y21.735
G1 X29.724 Y21.917
G1 X29.692 Y22.196
G1 X29.672 Y22.487
G1 X29.795 Y22.189
G1 X29.846 Y21.925
G1 X29.886 Y21.705
G1 X29.999 Y21.563
G1 X30.156 Y21.335
G1 X30.210 Y21.188
G1 X30.228 Y20.928
G1 X30.256 Y20.587
G1 X30.263 Y20.515
G1 X30.227 Y20.530
G1 X30.227 Y20.530
M5 ; laser off
; Path 86
G0 F1000 X30.065 Y19.697
M3 S800
G1 F600 X30.081 Y19.744
G1 X30.081 Y19.676
G1 X30.065 Y19.697
G1 X30.065 Y19.697
M5 ; laser off
; Path 87
G0 F1000 X27.092 Y25.555
M3 S800
G1 F600 X26.825 Y26.040
G1 X26.653 Y26.314
G1 X26.386 Y26.709
G1 X26.206 Y26.971
G1 X26.084 Y27.133
G1 X25.884 Y27.395
G1 X25.754 Y27.563
G1 X25.666 Y27.674
G1 X25.356 Y28.046
G1 X25.162 Y28.274
G1 X24.041 Y29.459
G1 X23.760 Y29.723
G1 X23.475 Y29.985
G1 X23.275 Y30.164
G1 X22.689 Y30.672
G1 X22.259 Y30.999
G1 X22.243 Y30.851
G1 X22.269 Y30.474
G1 X22.300 Y30.110
G1 X22.334 Y29.831
G1 X22.409 Y29.273
G1 X22.522 Y28.770
G1 X22.571 Y28.660
G1 X22.629 Y28.602
G1 X22.722 Y28.564
G1 X22.798 Y28.586
G1 X22.935 Y28.632
G1 X23.129 Y28.633
G1 X23.346 Y28.591
G1 X23.549 Y28.512
G1 X23.743 Y28.343
G1 X23.896 Y28.132
G1 X23.939 Y28.012
G1 X23.965 Y27.980
G1 X24.043 Y27.969
G1 X24.160 Y27.945
G1 X24.289 Y27.875
G1 X24.535 Y27.637
G1 X24.717 Y27.265
G1 X24.734 Y27.156
G1 X24.789 Y27.089
G1 X24.875 Y27.056
G1 X25.106 Y26.888
G1 X25.282 Y26.608
G1 X25.349 Y26.378
G1 X25.367 Y26.105
G1 X25.384 Y25.902
G1 X25.523 Y25.833
G1 X25.827 Y25.738
G1 X26.183 Y25.660
G1 X26.378 Y25.626
G1 X26.885 Y25.541
G1 X27.092 Y25.555
G1 X27.092 Y25.555
M5 ; laser off
; Path 88
G0 F1000 X21.080 Y30.922
M3 S800
G1 F600 X21.232 Y31.026
G1 X21.410 Y31.143
G1 X21.605 Y31.254
G1 X21.783 Y31.372
G1 X21.629 Y31.506
G1 X21.458 Y31.617
G1 X21.208 Y31.583
G1 X20.847 Y31.563
G1 X20.623 Y31.556
G1 X20.693 Y31.392
G1 X20.851 Y31.075
G1 X20.962 Y30.872
G1 X21.009 Y30.873
G1 X21.080 Y30.922
G1 X21.080 Y30.922
M5 ; laser off
; Path 89
G0 F1000 X21.301 Y31.899
M3 S800
G1 F600 X21.496 Y31.988
G1 X21.660 Y32.116
G1 X21.821 Y32.310
G1 X22.006 Y32.599
G1 X22.043 Y32.675
G1 X22.100 Y32.804
G1 X22.180 Y33.022
G1 X22.217 Y33.224
G1 X22.220 Y33.450
G1 X22.191 Y33.669
G1 X22.130 Y33.845
G1 X22.107 Y33.910
G1 X22.026 Y34.073
G1 X21.810 Y34.394
G1 X21.570 Y34.654
G1 X21.332 Y34.829
G1 X21.123 Y34.892
G1 X20.924 Y34.916
G1 X20.640 Y34.951
G1 X20.389 Y34.978
G1 X19.984 Y35.010
G1 X19.425 Y35.043
G1 X18.841 Y35.079
G1 X17.930 Y35.143
G1 X17.315 Y35.264
G1 X17.141 Y35.298
G1 X17.063 Y35.322
G1 X16.822 Y35.404
G1 X16.794 Y35.385
G1 X16.821 Y35.329
G1 X16.950 Y35.105
G1 X17.327 Y34.537
G1 X17.485 Y34.314
G1 X17.560 Y34.210
G1 X17.714 Y34.022
G1 X17.913 Y33.779
G1 X18.720 Y32.957
G1 X18.854 Y32.845
G1 X19.206 Y32.577
G1 X19.530 Y32.354
G1 X19.611 Y32.302
G1 X20.292 Y31.981
G1 X20.389 Y31.955
G1 X20.658 Y31.885
G1 X20.960 Y31.864
G1 X21.301 Y31.899
G1 X21.301 Y31.899
M5 ; laser off
; Path 90
G0 F1000 X15.497 Y36.348
M3 S800
G1 F600 X15.470 Y36.432
G1 X15.306 Y36.872
G1 X15.277 Y37.245
G1 X15.285 Y37.486
G1 X15.322 Y37.634
G1 X15.397 Y37.917
G1 X15.324 Y37.974
G1 X15.235 Y38.025
G1 X15.235 Y38.056
G1 X15.294 Y38.090
G1 X15.446 Y38.126
G1 X15.596 Y38.094
G1 X15.740 Y37.999
G1 X15.873 Y37.842
G1 X15.932 Y37.738
G1 X15.955 Y37.703
G1 X15.988 Y37.640
G1 X16.081 Y37.509
G1 X16.094 Y37.783
G1 X16.074 Y38.125
G1 X16.015 Y38.404
G1 X15.918 Y38.614
G1 X15.785 Y38.754
G1 X15.705 Y38.822
G1 X15.759 Y38.836
G1 X15.868 Y38.798
G1 X15.989 Y38.703
G1 X16.095 Y38.576
G1 X16.159 Y38.445
G1 X16.207 Y38.354
G1 X16.247 Y38.332
G1 X16.317 Y38.347
G1 X16.605 Y38.370
G1 X16.871 Y38.349
G1 X17.099 Y38.263
G1 X17.200 Y38.213
G1 X17.212 Y38.256
G1 X17.184 Y38.349
G1 X16.941 Y38.663
G1 X16.617 Y38.861
G1 X16.503 Y38.918
G1 X16.742 Y39.237
G1 X17.028 Y39.372
G1 X17.215 Y39.380
G1 X17.369 Y39.371
G1 X17.267 Y39.509
G1 X17.093 Y39.645
G1 X16.825 Y39.733
G1 X16.501 Y39.761
G1 X16.220 Y39.719
G1 X16.039 Y39.589
G1 X15.890 Y39.479
G1 X15.857 Y39.486
G1 X15.859 Y39.517
G1 X15.883 Y39.606
G1 X15.940 Y39.775
G1 X16.012 Y40.021
G1 X16.041 Y40.266
G1 X16.012 Y40.557
G1 X15.928 Y40.739
G1 X15.823 Y40.871
G1 X15.743 Y40.908
G1 X15.736 Y40.810
G1 X15.738 Y40.474
G1 X15.672 Y40.207
G1 X15.529 Y39.932
G1 X15.454 Y39.850
G1 X15.403 Y39.840
G1 X15.381 Y40.006
G1 X15.318 Y40.362
G1 X15.234 Y40.604
G1 X15.219 Y40.647
G1 X15.104 Y40.854
G1 X14.896 Y41.120
G1 X14.544 Y41.403
G1 X14.101 Y41.593
G1 X13.929 Y41.646
G1 X13.843 Y41.650
G1 X13.936 Y41.523
G1 X14.089 Y41.317
G1 X14.182 Y41.053
G1 X14.240 Y40.848
G1 X14.248 Y40.639
G1 X14.223 Y40.674
G1 X14.183 Y40.763
G1 X14.080 Y40.928
G1 X13.879 Y41.198
G1 X13.640 Y41.437
G1 X13.145 Y41.760
G1 X12.786 Y41.889
G1 X12.836 Y41.755
G1 X13.012 Y41.417
G1 X13.138 Y41.129
G1 X13.312 Y40.844
G1 X13.360 Y40.743
G1 X13.249 Y40.790
G1 X12.829 Y41.010
G1 X12.540 Y41.110
G1 X12.225 Y41.163
G1 X11.841 Y41.168
G1 X11.491 Y41.087
G1 X11.149 Y40.934
G1 X11.048 Y40.866
G1 X11.027 Y40.822
G1 X11.237 Y40.797
G1 X11.464 Y40.770
G1 X11.615 Y40.717
G1 X11.726 Y40.661
G1 X12.010 Y40.465
G1 X12.082 Y40.404
G1 X12.102 Y40.352
G1 X12.031 Y40.336
G1 X11.766 Y40.350
G1 X11.538 Y40.334
G1 X11.299 Y40.228
G1 X11.096 Y40.081
G1 X10.968 Y39.897
G1 X10.852 Y39.624
G1 X10.663 Y38.836
G1 X10.675 Y38.590
G1 X10.892 Y38.857
G1 X11.158 Y39.187
G1 X11.464 Y39.453
G1 X11.488 Y39.393
G1 X11.468 Y39.235
G1 X11.401 Y38.836
G1 X11.387 Y38.556
G1 X11.443 Y38.243
G1 X11.560 Y37.947
G1 X11.767 Y37.585
G1 X12.106 Y37.189
G1 X12.321 Y36.995
G1 X12.356 Y37.037
G1 X12.371 Y37.169
G1 X12.407 Y37.406
G1 X12.432 Y37.499
G1 X12.453 Y37.567
G1 X12.492 Y37.661
G1 X12.713 Y38.025
G1 X13.062 Y38.386
G1 X13.226 Y38.488
G1 X13.261 Y38.470
G1 X13.280 Y38.408
G1 X13.352 Y38.108
G1 X13.404 Y37.939
G1 X13.460 Y37.761
G1 X13.518 Y37.617
G1 X13.645 Y37.333
G1 X13.966 Y36.847
G1 X14.218 Y36.614
G1 X14.268 Y36.586
G1 X14.295 Y36.605
G1 X14.316 Y36.878
G1 X14.348 Y37.262
G1 X14.417 Y37.549
G1 X14.523 Y37.778
G1 X14.602 Y37.538
G1 X14.621 Y37.436
G1 X14.655 Y37.295
G1 X14.685 Y37.185
G1 X14.715 Y37.100
G1 X14.822 Y36.829
G1 X15.029 Y36.564
G1 X15.189 Y36.424
G1 X15.381 Y36.329
G1 X15.478 Y36.305
G1 X15.497 Y36.348
G1 X15.497 Y36.348
M5 ; laser off
; Path 91
G0 F1000 X14.222 Y34.949
M3 S800
G1 F600 X14.017 Y35.155
G1 X13.816 Y35.544
G1 X13.728 Y36.009
G1 X13.758 Y36.147
G1 X13.833 Y36.239
G1 X13.890 Y36.260
G1 X13.959 Y36.240
G1 X14.094 Y36.139
G1 X14.234 Y35.967
G1 X14.359 Y35.700
G1 X14.450 Y35.359
G1 X14.468 Y35.191
G1 X14.431 Y35.006
G1 X14.300 Y34.926
G1 X14.222 Y34.949
G1 X14.222 Y34.949
M5 ; laser off
; Path 92
G0 F1000 X15.604 Y38.865
M3 S800
G1 F600 X15.669 Y38.864
G1 X15.632 Y38.857
G1 X15.604 Y38.865
G1 X15.604 Y38.865
M5 ; laser off
; Path 93
G0 F1000 X11.102 Y38.705
M3 S800
G1 F600 X11.119 Y38.734
G1 X11.134 Y38.781
G1 X11.123 Y38.802
G1 X11.080 Y38.741
G1 X11.000 Y38.637
G1 X11.001 Y38.575
G1 X11.102 Y38.705
G1 X11.102 Y38.705
M5 ; laser off
; Path 94
G0 F1000 X10.399 Y38.510
M3 S800
G1 F600 X10.429 Y38.747
G1 X10.456 Y39.026
G1 X10.492 Y39.306
G1 X10.407 Y39.377
G1 X10.219 Y39.460
G1 X9.960 Y39.563
G1 X9.838 Y39.615
G1 X9.696 Y39.675
G1 X9.625 Y39.699
G1 X9.557 Y39.724
G1 X9.302 Y39.818
G1 X9.197 Y39.859
G1 X9.122 Y39.885
G1 X9.050 Y39.910
G1 X8.728 Y40.030
G1 X8.218 Y40.199
G1 X8.118 Y40.224
G1 X8.013 Y40.249
G1 X7.642 Y40.352
G1 X7.423 Y40.401
G1 X7.241 Y40.436
G1 X7.180 Y40.429
G1 X7.209 Y40.410
G1 X7.255 Y40.380
G1 X7.569 Y40.199
G1 X7.748 Y40.102
G1 X7.885 Y40.024
G1 X8.424 Y39.677
G1 X8.659 Y39.505
G1 X8.825 Y39.378
G1 X8.976 Y39.263
G1 X9.065 Y39.190
G1 X9.141 Y39.126
G1 X9.320 Y38.997
G1 X9.619 Y38.802
G1 X9.741 Y38.735
G1 X9.980 Y38.623
G1 X10.085 Y38.574
G1 X10.195 Y38.539
G1 X10.276 Y38.513
G1 X10.399 Y38.510
G1 X10.399 Y38.510
M5 ; laser off
; Path 95
G0 F1000 X9.149 Y37.184
M3 S800
G1 F600 X9.490 Y37.237
G1 X9.895 Y37.320
G1 X10.289 Y37.412
G1 X10.385 Y37.439
G1 X10.462 Y37.464
G1 X10.524 Y37.488
G1 X10.614 Y37.542
G1 X10.689 Y37.685
G1 X10.755 Y37.848
G1 X10.778 Y37.911
G1 X10.917 Y38.229
G1 X10.930 Y38.345
G1 X10.858 Y38.325
G1 X10.753 Y38.238
G1 X10.624 Y38.019
G1 X10.564 Y37.922
G1 X10.488 Y38.088
G1 X10.420 Y38.259
G1 X10.244 Y38.319
G1 X9.917 Y38.427
G1 X9.547 Y38.609
G1 X9.401 Y38.694
G1 X8.771 Y39.151
G1 X8.340 Y39.479
G1 X8.130 Y39.622
G1 X7.852 Y39.812
G1 X7.739 Y39.885
G1 X7.396 Y40.098
G1 X7.269 Y40.172
G1 X7.115 Y40.261
G1 X6.689 Y40.470
G1 X6.561 Y40.491
G1 X6.423 Y40.478
G1 X6.148 Y40.379
G1 X6.053 Y40.287
G1 X5.976 Y40.158
G1 X5.896 Y39.934
G1 X5.849 Y39.669
G1 X5.836 Y39.384
G1 X5.860 Y39.095
G1 X5.958 Y38.695
G1 X5.981 Y38.629
G1 X6.011 Y38.541
G1 X6.079 Y38.387
G1 X6.312 Y38.013
G1 X6.629 Y37.680
G1 X7.188 Y37.354
G1 X7.546 Y37.238
G1 X7.991 Y37.160
G1 X8.549 Y37.152
G1 X9.149 Y37.184
